;FLAVOR:UltiGCode
;TIME:1072
;MATERIAL:3135
;MATERIAL2:0
;NOZZLE_DIAMETER:0.8
;MINX:95.24
;MINY:95.24
;MINZ:0.5
;MAXX:127.76
;MAXY:127.76
;MAXZ:20
;Generated with Cura_SteamEngine 4.12.1
M82 ;absolute extrusion mode
G0 F3000 Y50 ;avoid prime blob
G92 E0
G92 E0
;LAYER_COUNT:40
;LAYER:0
M107
G0 F14400 X97.17 Y96.997 Z0.5
;TYPE:SKIRT
G1 F420 X97.707 Y96.536 E0.29725
G1 X98.292 Y96.139 E0.59418
G1 X98.918 Y95.81 E0.8912
G1 X99.578 Y95.554 E1.18853
G1 X100.262 Y95.374 E1.48559
G1 X100.962 Y95.273 E1.78263
G1 X101.655 Y95.242 E2.07398
G1 X101.83 Y95.24 E2.14749
G1 X120.793 Y95.24 E10.11195
G1 X121.581 Y95.251 E10.44294
G1 X122.286 Y95.301 E10.73978
G1 X122.982 Y95.43 E11.03708
G1 X123.658 Y95.637 E11.33401
G1 X124.307 Y95.919 E11.63122
G1 X124.92 Y96.272 E11.92831
G1 X125.489 Y96.693 E12.22559
G1 X126.007 Y97.175 E12.52277
G1 X126.467 Y97.712 E12.81975
G1 X126.864 Y98.297 E13.11668
G1 X127.192 Y98.924 E13.41388
G1 X127.447 Y99.584 E13.71105
G1 X127.627 Y100.268 E14.00811
G1 X127.728 Y100.968 E14.30516
G1 X127.758 Y101.654 E14.59355
G1 X127.76 Y101.83 E14.66748
G1 X127.76 Y120.841 E22.6521
G1 X127.751 Y121.568 E22.95746
G1 X127.702 Y122.274 E23.25469
G1 X127.574 Y122.97 E23.55191
G1 X127.368 Y123.647 E23.84913
G1 X127.087 Y124.296 E24.14616
G1 X126.735 Y124.91 E24.44341
G1 X126.316 Y125.479 E24.74019
G1 X125.835 Y125.998 E25.03739
G1 X125.299 Y126.46 E25.3346
G1 X124.714 Y126.857 E25.63153
G1 X124.088 Y127.187 E25.92875
G1 X123.429 Y127.443 E26.22568
G1 X122.745 Y127.624 E26.52285
G1 X122.045 Y127.726 E26.81995
G1 X121.345 Y127.758 E27.11426
G1 X121.17 Y127.76 E27.18776
G1 X102.126 Y127.759 E35.18624
G1 X101.428 Y127.75 E35.47943
G1 X100.723 Y127.701 E35.77624
G1 X100.027 Y127.573 E36.07347
G1 X99.35 Y127.367 E36.37068
G1 X98.701 Y127.086 E36.66771
G1 X98.088 Y126.733 E36.96481
G1 X97.518 Y126.314 E37.26193
G1 X97 Y125.833 E37.55882
G1 X96.538 Y125.296 E37.85634
G1 X96.141 Y124.711 E38.15328
G1 X95.812 Y124.085 E38.4503
G1 X95.556 Y123.426 E38.74723
G1 X95.375 Y122.742 E39.0444
G1 X95.273 Y122.042 E39.3415
G1 X95.242 Y121.327 E39.64208
G1 X95.24 Y121.158 E39.71307
G1 X95.241 Y102.089 E47.72205
G1 X95.25 Y101.424 E48.00137
G1 X95.299 Y100.719 E48.29819
G1 X95.428 Y100.023 E48.59549
G1 X95.634 Y99.346 E48.8927
G1 X95.916 Y98.698 E49.18951
G1 X96.269 Y98.084 E49.48698
G1 X96.689 Y97.515 E49.78401
G1 X97.17 Y96.997 E50.0809
G0 F14400 X97.99 Y97.387
G1 F420 X98.515 Y96.991 E50.35709
G1 X99.085 Y96.661 E50.63372
G1 X99.69 Y96.403 E50.90996
G1 X100.323 Y96.22 E51.18671
G1 X100.973 Y96.116 E51.46318
G1 X101.678 Y96.082 E51.75962
G1 X101.83 Y96.08 E51.82347
G1 X120.793 Y96.08 E59.78793
G1 X121.569 Y96.091 E60.11388
G1 X122.225 Y96.14 E60.39017
G1 X122.87 Y96.268 E60.66635
G1 X123.496 Y96.474 E60.94314
G1 X124.091 Y96.754 E61.21933
G1 X124.648 Y97.105 E61.49584
G1 X125.159 Y97.52 E61.77233
G1 X125.616 Y97.994 E62.04887
G1 X126.012 Y98.52 E62.32539
G1 X126.341 Y99.09 E62.60181
G1 X126.598 Y99.695 E62.87789
G1 X126.781 Y100.328 E63.15463
G1 X126.885 Y100.978 E63.43111
G1 X126.918 Y101.678 E63.72543
G1 X126.92 Y101.83 E63.78928
G1 X126.92 Y120.831 E71.7697
G1 X126.911 Y121.558 E72.07506
G1 X126.862 Y122.215 E72.35177
G1 X126.735 Y122.86 E72.62787
G1 X126.531 Y123.486 E72.9044
G1 X126.252 Y124.082 E73.18079
G1 X125.902 Y124.64 E73.45743
G1 X125.488 Y125.151 E73.73365
G1 X125.015 Y125.609 E74.01018
G1 X124.49 Y126.006 E74.28663
G1 X123.921 Y126.336 E74.56289
G1 X123.315 Y126.595 E74.83968
G1 X122.683 Y126.778 E75.11602
G1 X122.034 Y126.884 E75.39222
G1 X121.322 Y126.918 E75.6916
G1 X121.17 Y126.92 E75.75544
G1 X102.137 Y126.92 E83.7493
G1 X101.439 Y126.911 E84.04249
G1 X100.783 Y126.862 E84.31877
G1 X100.137 Y126.734 E84.59537
G1 X99.512 Y126.53 E84.8715
G1 X98.916 Y126.25 E85.14807
G1 X98.358 Y125.901 E85.42449
G1 X97.847 Y125.486 E85.70097
G1 X97.389 Y125.013 E85.9775
G1 X96.993 Y124.488 E86.25369
G1 X96.663 Y123.918 E86.53032
G1 X96.404 Y123.313 E86.80673
G1 X96.221 Y122.681 E87.08307
G1 X96.116 Y122.031 E87.35961
G1 X96.082 Y121.304 E87.66528
G1 X96.08 Y121.158 E87.72661
G1 X96.08 Y102.101 E95.73055
G1 X96.089 Y101.436 E96.00987
G1 X96.138 Y100.779 E96.28658
G1 X96.266 Y100.134 E96.56276
G1 X96.472 Y99.508 E96.83955
G1 X96.751 Y98.913 E97.11556
G1 X97.101 Y98.355 E97.39221
G1 X97.516 Y97.844 E97.66869
G1 X97.99 Y97.387 E97.94523
;MESH:20mmTestCube_repaired.stl
G0 F14400 X102.34 Y102.34
;TYPE:FILL
G1 F420 X104.429 Y102.34 E98.82261
G1 X104.429 Y103.015 E99.10611
G1 X105.843 Y104.429 E99.94598
G1 X107.257 Y103.015 E100.78586
G1 X107.257 Y102.34 E101.06936
G1 X110.085 Y102.34 E102.25712
G1 X110.085 Y104.429 E103.1345
G1 X108.671 Y104.429 E103.72838
G1 X107.257 Y105.843 E104.56825
G1 X108.671 Y107.257 E105.40812
G1 X110.085 Y107.257 E106.002
G1 X110.085 Y108.671 E106.59588
G1 X111.5 Y110.085 E107.43605
G1 X112.914 Y108.671 E108.27593
G1 X112.914 Y107.257 E108.86981
G1 X114.328 Y107.257 E109.46369
G1 X115.742 Y105.843 E110.30356
G1 X114.328 Y104.429 E111.14343
G1 X112.914 Y104.429 E111.73731
G1 X112.914 Y102.34 E112.61469
G1 X115.742 Y102.34 E113.80245
G1 X115.742 Y103.015 E114.08595
G1 X117.156 Y104.429 E114.92583
G1 X118.57 Y103.015 E115.7657
G1 X118.57 Y102.34 E116.0492
G1 X120.66 Y102.34 E116.927
G1 X120.66 Y104.429 E117.80438
G1 X119.984 Y104.429 E118.0883
G1 X118.57 Y105.843 E118.92817
G1 X119.984 Y107.257 E119.76805
G1 X120.66 Y107.257 E120.05197
G1 X120.66 Y110.085 E121.23973
G1 X118.57 Y110.085 E122.11753
G1 X118.57 Y108.671 E122.71141
G1 X117.156 Y107.257 E123.55128
G1 X115.742 Y108.671 E124.39115
G1 X115.742 Y110.085 E124.98503
G1 X114.328 Y110.085 E125.57891
G1 X112.914 Y111.5 E126.41908
G1 X114.328 Y112.914 E127.25896
G1 X115.742 Y112.914 E127.85284
G1 X115.742 Y114.328 E128.44672
G1 X117.156 Y115.742 E129.28659
G1 X118.57 Y114.328 E130.12646
G1 X118.57 Y112.914 E130.72034
G1 X120.66 Y112.914 E131.59814
G1 X120.66 Y115.742 E132.7859
G1 X119.984 Y115.742 E133.06982
G1 X118.57 Y117.156 E133.90969
G1 X119.984 Y118.57 E134.74957
G1 X120.66 Y118.57 E135.03349
G1 X120.66 Y120.66 E135.91129
G1 X118.57 Y120.66 E136.78909
G1 X118.57 Y119.984 E137.07301
G1 X117.156 Y118.57 E137.91288
G1 X115.742 Y119.984 E138.75275
G1 X115.742 Y120.66 E139.03667
G1 X112.914 Y120.66 E140.22443
G1 X112.914 Y118.57 E141.10223
G1 X114.328 Y118.57 E141.69611
G1 X115.742 Y117.156 E142.53599
G1 X114.328 Y115.742 E143.37586
G1 X112.914 Y115.742 E143.96974
G1 X112.914 Y114.328 E144.56362
G1 X111.5 Y112.914 E145.40349
G1 X110.085 Y114.328 E146.24366
G1 X110.085 Y115.742 E146.83754
G1 X108.671 Y115.742 E147.43142
G1 X107.257 Y117.156 E148.2713
G1 X108.671 Y118.57 E149.11117
G1 X110.085 Y118.57 E149.70505
G1 X110.085 Y120.66 E150.58285
G1 X107.257 Y120.66 E151.77061
G1 X107.257 Y119.984 E152.05453
G1 X105.843 Y118.57 E152.8944
G1 X104.429 Y119.984 E153.73428
G1 X104.429 Y120.66 E154.0182
G1 X102.34 Y120.66 E154.89558
G1 X102.34 Y118.57 E155.77338
G1 X103.015 Y118.57 E156.05688
G1 X104.429 Y117.156 E156.89675
G1 X103.015 Y115.742 E157.73662
G1 X102.34 Y115.742 E158.02012
G1 X102.34 Y112.914 E159.20788
G1 X104.429 Y112.914 E160.08526
G1 X104.429 Y114.328 E160.67914
G1 X105.843 Y115.742 E161.51902
G1 X107.257 Y114.328 E162.35889
G1 X107.257 Y112.914 E162.95277
G1 X108.671 Y112.914 E163.54665
G1 X110.085 Y111.5 E164.38652
G1 X108.671 Y110.085 E165.22669
G1 X107.257 Y110.085 E165.82057
G1 X107.257 Y108.671 E166.41445
G1 X105.843 Y107.257 E167.25433
G1 X104.429 Y108.671 E168.0942
G1 X104.429 Y110.085 E168.68808
G1 X102.34 Y110.085 E169.56546
G1 X102.34 Y107.257 E170.75322
G1 X103.015 Y107.257 E171.03672
G1 X104.429 Y105.843 E171.87659
G1 X103.015 Y104.429 E172.71646
G1 X102.34 Y104.429 E172.99996
G1 X102.34 Y102.34 E173.87734
;TIME_ELAPSED:59.921552
;LAYER:1
;MESH:20mmTestCube_repaired.stl
G0 F14400 X102.34 Y102.34 Z1
;TYPE:FILL
G1 F420 X104.429 Y102.34 E174.75472
G1 X104.429 Y103.015 E175.03822
G1 X105.843 Y104.429 E175.8781
G1 X107.257 Y103.015 E176.71797
G1 X107.257 Y102.34 E177.00147
G1 X110.085 Y102.34 E178.18923
G1 X110.085 Y104.429 E179.06661
G1 X108.671 Y104.429 E179.66049
G1 X107.257 Y105.843 E180.50036
G1 X108.671 Y107.257 E181.34024
G1 X110.085 Y107.257 E181.93412
G1 X110.085 Y108.671 E182.528
G1 X111.5 Y110.085 E183.36817
G1 X112.914 Y108.671 E184.20804
G1 X112.914 Y107.257 E184.80192
G1 X114.328 Y107.257 E185.3958
G1 X115.742 Y105.843 E186.23567
G1 X114.328 Y104.429 E187.07555
G1 X112.914 Y104.429 E187.66943
G1 X112.914 Y102.34 E188.54681
G1 X115.742 Y102.34 E189.73457
G1 X115.742 Y103.015 E190.01807
G1 X117.156 Y104.429 E190.85794
G1 X118.57 Y103.015 E191.69781
G1 X118.57 Y102.34 E191.98131
G1 X120.66 Y102.34 E192.85911
G1 X120.66 Y104.429 E193.73649
G1 X119.984 Y104.429 E194.02041
G1 X118.57 Y105.843 E194.86029
G1 X119.984 Y107.257 E195.70016
G1 X120.66 Y107.257 E195.98408
G1 X120.66 Y110.085 E197.17184
G1 X118.57 Y110.085 E198.04964
G1 X118.57 Y108.671 E198.64352
G1 X117.156 Y107.257 E199.48339
G1 X115.742 Y108.671 E200.32327
G1 X115.742 Y110.085 E200.91715
G1 X114.328 Y110.085 E201.51103
G1 X112.914 Y111.5 E202.3512
G1 X114.328 Y112.914 E203.19107
G1 X115.742 Y112.914 E203.78495
G1 X115.742 Y114.328 E204.37883
G1 X117.156 Y115.742 E205.2187
G1 X118.57 Y114.328 E206.05858
G1 X118.57 Y112.914 E206.65246
G1 X120.66 Y112.914 E207.53026
G1 X120.66 Y115.742 E208.71802
G1 X119.984 Y115.742 E209.00194
G1 X118.57 Y117.156 E209.84181
G1 X119.984 Y118.57 E210.68168
G1 X120.66 Y118.57 E210.9656
G1 X120.66 Y120.66 E211.8434
G1 X118.57 Y120.66 E212.7212
G1 X118.57 Y119.984 E213.00512
G1 X117.156 Y118.57 E213.84499
G1 X115.742 Y119.984 E214.68487
G1 X115.742 Y120.66 E214.96879
G1 X112.914 Y120.66 E216.15655
G1 X112.914 Y118.57 E217.03435
G1 X114.328 Y118.57 E217.62823
G1 X115.742 Y117.156 E218.4681
G1 X114.328 Y115.742 E219.30797
G1 X112.914 Y115.742 E219.90185
G1 X112.914 Y114.328 E220.49573
G1 X111.5 Y112.914 E221.33561
G1 X110.085 Y114.328 E222.17578
G1 X110.085 Y115.742 E222.76966
G1 X108.671 Y115.742 E223.36354
G1 X107.257 Y117.156 E224.20341
G1 X108.671 Y118.57 E225.04328
G1 X110.085 Y118.57 E225.63716
G1 X110.085 Y120.66 E226.51496
G1 X107.257 Y120.66 E227.70272
G1 X107.257 Y119.984 E227.98664
G1 X105.843 Y118.57 E228.82652
G1 X104.429 Y119.984 E229.66639
G1 X104.429 Y120.66 E229.95031
G1 X102.34 Y120.66 E230.82769
G1 X102.34 Y118.57 E231.70549
G1 X103.015 Y118.57 E231.98899
G1 X104.429 Y117.156 E232.82886
G1 X103.015 Y115.742 E233.66874
G1 X102.34 Y115.742 E233.95224
G1 X102.34 Y112.914 E235.14
G1 X104.429 Y112.914 E236.01738
G1 X104.429 Y114.328 E236.61126
G1 X105.843 Y115.742 E237.45113
G1 X107.257 Y114.328 E238.291
G1 X107.257 Y112.914 E238.88488
G1 X108.671 Y112.914 E239.47876
G1 X110.085 Y111.5 E240.31864
G1 X108.671 Y110.085 E241.15881
G1 X107.257 Y110.085 E241.75269
G1 X107.257 Y108.671 E242.34657
G1 X105.843 Y107.257 E243.18644
G1 X104.429 Y108.671 E244.02631
G1 X104.429 Y110.085 E244.62019
G1 X102.34 Y110.085 E245.49757
G1 X102.34 Y107.257 E246.68533
G1 X103.015 Y107.257 E246.96883
G1 X104.429 Y105.843 E247.80871
G1 X103.015 Y104.429 E248.64858
G1 X102.34 Y104.429 E248.93208
G1 X102.34 Y102.34 E249.80946
;TIME_ELAPSED:85.889848
;LAYER:2
;MESH:20mmTestCube_repaired.stl
G0 F14400 X102.34 Y102.34 Z1.5
;TYPE:FILL
G1 F420 X104.429 Y102.34 E250.68684
G1 X104.429 Y103.015 E250.97034
G1 X105.843 Y104.429 E251.81021
G1 X107.257 Y103.015 E252.65009
G1 X107.257 Y102.34 E252.93359
G1 X110.085 Y102.34 E254.12135
G1 X110.085 Y104.429 E254.99873
G1 X108.671 Y104.429 E255.59261
G1 X107.257 Y105.843 E256.43248
G1 X108.671 Y107.257 E257.27235
G1 X110.085 Y107.257 E257.86623
G1 X110.085 Y108.671 E258.46011
G1 X111.5 Y110.085 E259.30028
G1 X112.914 Y108.671 E260.14015
G1 X112.914 Y107.257 E260.73403
G1 X114.328 Y107.257 E261.32791
G1 X115.742 Y105.843 E262.16779
G1 X114.328 Y104.429 E263.00766
G1 X112.914 Y104.429 E263.60154
G1 X112.914 Y102.34 E264.47892
G1 X115.742 Y102.34 E265.66668
G1 X115.742 Y103.015 E265.95018
G1 X117.156 Y104.429 E266.79005
G1 X118.57 Y103.015 E267.62993
G1 X118.57 Y102.34 E267.91343
G1 X120.66 Y102.34 E268.79123
G1 X120.66 Y104.429 E269.66861
G1 X119.984 Y104.429 E269.95253
G1 X118.57 Y105.843 E270.7924
G1 X119.984 Y107.257 E271.63227
G1 X120.66 Y107.257 E271.91619
G1 X120.66 Y110.085 E273.10395
G1 X118.57 Y110.085 E273.98175
G1 X118.57 Y108.671 E274.57563
G1 X117.156 Y107.257 E275.41551
G1 X115.742 Y108.671 E276.25538
G1 X115.742 Y110.085 E276.84926
G1 X114.328 Y110.085 E277.44314
G1 X112.914 Y111.5 E278.28331
G1 X114.328 Y112.914 E279.12318
G1 X115.742 Y112.914 E279.71706
G1 X115.742 Y114.328 E280.31094
G1 X117.156 Y115.742 E281.15082
G1 X118.57 Y114.328 E281.99069
G1 X118.57 Y112.914 E282.58457
G1 X120.66 Y112.914 E283.46237
G1 X120.66 Y115.742 E284.65013
G1 X119.984 Y115.742 E284.93405
G1 X118.57 Y117.156 E285.77392
G1 X119.984 Y118.57 E286.6138
G1 X120.66 Y118.57 E286.89772
G1 X120.66 Y120.66 E287.77552
G1 X118.57 Y120.66 E288.65332
G1 X118.57 Y119.984 E288.93724
G1 X117.156 Y118.57 E289.77711
G1 X115.742 Y119.984 E290.61698
G1 X115.742 Y120.66 E290.9009
G1 X112.914 Y120.66 E292.08866
G1 X112.914 Y118.57 E292.96646
G1 X114.328 Y118.57 E293.56034
G1 X115.742 Y117.156 E294.40022
G1 X114.328 Y115.742 E295.24009
G1 X112.914 Y115.742 E295.83397
G1 X112.914 Y114.328 E296.42785
G1 X111.5 Y112.914 E297.26772
G1 X110.085 Y114.328 E298.10789
G1 X110.085 Y115.742 E298.70177
G1 X108.671 Y115.742 E299.29565
G1 X107.257 Y117.156 E300.13553
G1 X108.671 Y118.57 E300.9754
G1 X110.085 Y118.57 E301.56928
G1 X110.085 Y120.66 E302.44708
G1 X107.257 Y120.66 E303.63484
G1 X107.257 Y119.984 E303.91876
G1 X105.843 Y118.57 E304.75863
G1 X104.429 Y119.984 E305.5985
G1 X104.429 Y120.66 E305.88242
G1 X102.34 Y120.66 E306.7598
G1 X102.34 Y118.57 E307.6376
G1 X103.015 Y118.57 E307.9211
G1 X104.429 Y117.156 E308.76098
G1 X103.015 Y115.742 E309.60085
G1 X102.34 Y115.742 E309.88435
G1 X102.34 Y112.914 E311.07211
G1 X104.429 Y112.914 E311.94949
G1 X104.429 Y114.328 E312.54337
G1 X105.843 Y115.742 E313.38324
G1 X107.257 Y114.328 E314.22312
G1 X107.257 Y112.914 E314.817
G1 X108.671 Y112.914 E315.41088
G1 X110.085 Y111.5 E316.25075
G1 X108.671 Y110.085 E317.09092
G1 X107.257 Y110.085 E317.6848
G1 X107.257 Y108.671 E318.27868
G1 X105.843 Y107.257 E319.11855
G1 X104.429 Y108.671 E319.95843
G1 X104.429 Y110.085 E320.55231
G1 X102.34 Y110.085 E321.42969
G1 X102.34 Y107.257 E322.61745
G1 X103.015 Y107.257 E322.90095
G1 X104.429 Y105.843 E323.74082
G1 X103.015 Y104.429 E324.58069
G1 X102.34 Y104.429 E324.86419
G1 X102.34 Y102.34 E325.74157
;TIME_ELAPSED:111.858145
;LAYER:3
;MESH:20mmTestCube_repaired.stl
G0 F14400 X102.34 Y102.34 Z2
;TYPE:FILL
G1 F420 X104.429 Y102.34 E326.61895
G1 X104.429 Y103.015 E326.90245
G1 X105.843 Y104.429 E327.74233
G1 X107.257 Y103.015 E328.5822
G1 X107.257 Y102.34 E328.8657
G1 X110.085 Y102.34 E330.05346
G1 X110.085 Y104.429 E330.93084
G1 X108.671 Y104.429 E331.52472
G1 X107.257 Y105.843 E332.36459
G1 X108.671 Y107.257 E333.20447
G1 X110.085 Y107.257 E333.79835
G1 X110.085 Y108.671 E334.39223
G1 X111.5 Y110.085 E335.2324
G1 X112.914 Y108.671 E336.07227
G1 X112.914 Y107.257 E336.66615
G1 X114.328 Y107.257 E337.26003
G1 X115.742 Y105.843 E338.0999
G1 X114.328 Y104.429 E338.93978
G1 X112.914 Y104.429 E339.53366
G1 X112.914 Y102.34 E340.41104
G1 X115.742 Y102.34 E341.5988
G1 X115.742 Y103.015 E341.8823
G1 X117.156 Y104.429 E342.72217
G1 X118.57 Y103.015 E343.56204
G1 X118.57 Y102.34 E343.84554
G1 X120.66 Y102.34 E344.72334
G1 X120.66 Y104.429 E345.60072
G1 X119.984 Y104.429 E345.88464
G1 X118.57 Y105.843 E346.72451
G1 X119.984 Y107.257 E347.56439
G1 X120.66 Y107.257 E347.84831
G1 X120.66 Y110.085 E349.03607
