;FLAVOR:UltiGCode
;TIME:280
;MATERIAL:2089
;MATERIAL2:0
;NOZZLE_DIAMETER:0.8
;MINX:94.72
;MINY:94.715
;MINZ:0.9
;MAXX:128.283
;MAXY:128.285
;MAXZ:9.9
;Generated with Cura_SteamEngine 4.9.1
M82 ;absolute extrusion mode
G0 F3000 Y50 ;avoid prime blob
G92 E0
G92 E0
;LAYER_COUNT:11
;LAYER:0
M107
G0 F18000 X99.468 Y99.799 Z0.9
;TYPE:SKIRT
G1 F420 X100.114 Y99.17 E0.97377
G1 X100.328 Y98.977 E1.285
G1 X100.73 Y98.63 E1.85853
G1 X101.255 Y98.208 E2.586
G1 X101.74 Y97.848 E3.23833
G1 X102.251 Y97.498 E3.90725
G1 X102.807 Y97.146 E4.61795
G1 X103.251 Y96.881 E5.17639
G1 X103.848 Y96.556 E5.9105
G1 X104.409 Y96.282 E6.58478
G1 X105.071 Y95.996 E7.36361
G1 X105.708 Y95.748 E8.10187
G1 X106.261 Y95.557 E8.73373
G1 X106.748 Y95.404 E9.28504
G1 X107.404 Y95.225 E10.01942
G1 X108.075 Y95.071 E10.76294
G1 X108.823 Y94.93 E11.58501
G1 X109.728 Y94.81 E12.57096
G1 X110.462 Y94.75 E13.36632
G1 X111.122 Y94.72 E14.07986
G1 X111.61 Y94.715 E14.60693
G1 X112.18 Y94.73 E15.22274
G1 X112.933 Y94.779 E16.0377
G1 X113.541 Y94.842 E16.69786
G1 X114.039 Y94.909 E17.24054
G1 X114.633 Y95.011 E17.89145
G1 X114.868 Y95.058 E18.15028
G1 X115.374 Y95.168 E18.70952
G1 X115.873 Y95.293 E19.26509
G1 X116.476 Y95.471 E19.94411
G1 X117.053 Y95.662 E20.60053
G1 X117.7 Y95.904 E21.34657
G1 X118.335 Y96.17 E22.09011
G1 X118.833 Y96.404 E22.68436
G1 X119.445 Y96.719 E23.42774
G1 X119.947 Y96.997 E24.04748
G1 X120.398 Y97.268 E24.61573
G1 X121.03 Y97.684 E25.43288
G1 X121.568 Y98.072 E26.14927
G1 X122.042 Y98.441 E26.79802
G1 X122.496 Y98.817 E27.43466
G1 X122.962 Y99.241 E28.11509
G1 X123.482 Y99.749 E28.9002
G1 X123.916 Y100.205 E29.58008
G1 X124.326 Y100.676 E30.25449
G1 X124.68 Y101.109 E30.85852
G1 X125.07 Y101.625 E31.55707
G1 X125.438 Y102.152 E32.25126
G1 X125.783 Y102.685 E32.93697
G1 X126.124 Y103.267 E33.66547
G1 X126.481 Y103.931 E34.47967
G1 X126.858 Y104.731 E35.4348
G1 X127.116 Y105.35 E36.15906
G1 X127.332 Y105.927 E36.82446
G1 X127.503 Y106.437 E37.40539
G1 X127.71 Y107.147 E38.20412
G1 X127.871 Y107.812 E38.94307
G1 X128 Y108.441 E39.63653
G1 X128.088 Y108.941 E40.18483
G1 X128.158 Y109.441 E40.73009
G1 X128.185 Y109.693 E41.00381
G1 X128.239 Y110.288 E41.64905
G1 X128.271 Y110.806 E42.20956
G1 X128.283 Y111.551 E43.01426
G1 X128.271 Y112.132 E43.64188
G1 X128.232 Y112.797 E44.36131
G1 X128.166 Y113.495 E45.11851
G1 X128.064 Y114.222 E45.91136
G1 X128.011 Y114.512 E46.22975
G1 X127.886 Y115.123 E46.9033
G1 X127.756 Y115.671 E47.51156
G1 X127.554 Y116.394 E48.32231
G1 X127.337 Y117.065 E49.08394
G1 X127.178 Y117.494 E49.57806
G1 X126.953 Y118.044 E50.21984
G1 X126.835 Y118.315 E50.53906
G1 X126.612 Y118.799 E51.1146
G1 X126.343 Y119.333 E51.76036
G1 X126.075 Y119.82 E52.3607
G1 X125.749 Y120.371 E53.05213
G1 X125.366 Y120.958 E53.8091
G1 X125.009 Y121.462 E54.47614
G1 X124.67 Y121.906 E55.07945
G1 X124.215 Y122.453 E55.84787
G1 X123.807 Y122.912 E56.51113
G1 X123.461 Y123.273 E57.05117
G1 X122.948 Y123.771 E57.82333
G1 X122.442 Y124.227 E58.55897
G1 X121.931 Y124.647 E59.27334
G1 X121.351 Y125.089 E60.0609
G1 X120.922 Y125.39 E60.62689
G1 X120.382 Y125.741 E61.32247
G1 X119.746 Y126.12 E62.12206
G1 X119.424 Y126.294 E62.51734
G1 X118.839 Y126.593 E63.22688
G1 X118.386 Y126.808 E63.76843
G1 X117.908 Y127.013 E64.33014
G1 X117.241 Y127.271 E65.10252
G1 X116.62 Y127.484 E65.81155
G1 X116.006 Y127.668 E66.50381
G1 X115.305 Y127.846 E67.28491
G1 X114.813 Y127.952 E67.82846
G1 X114.126 Y128.078 E68.5828
G1 X113.446 Y128.171 E69.32404
G1 X112.919 Y128.224 E69.89607
G1 X112.41 Y128.26 E70.44716
G1 X112.185 Y128.27 E70.6904
G1 X111.651 Y128.285 E71.26735
G1 X111.075 Y128.28 E71.88945
G1 X110.525 Y128.255 E72.48406
G1 X109.994 Y128.216 E73.05909
G1 X109.726 Y128.188 E73.35011
G1 X109.133 Y128.115 E73.99538
G1 X108.454 Y128.005 E74.73826
G1 X107.764 Y127.863 E75.49908
G1 X107.075 Y127.692 E76.26577
G1 X106.283 Y127.452 E77.15954
G1 X106.039 Y127.369 E77.43789
G1 X105.565 Y127.198 E77.98211
G1 X104.944 Y126.953 E78.70309
G1 X104.464 Y126.744 E79.2685
G1 X103.882 Y126.458 E79.96886
G1 X103.252 Y126.117 E80.74253
G1 X102.854 Y125.884 E81.24061
G1 X102.299 Y125.533 E81.94983
G1 X101.778 Y125.178 E82.63071
G1 X101.598 Y125.047 E82.87114
G1 X101.161 Y124.72 E83.46061
G1 X100.766 Y124.402 E84.00828
G1 X100.259 Y123.96 E84.7347
G1 X99.76 Y123.496 E85.47061
G1 X99.418 Y123.151 E85.99526
G1 X98.942 Y122.634 E86.75423
G1 X98.56 Y122.19 E87.3868
G1 X98.185 Y121.718 E88.03786
G1 X97.846 Y121.26 E88.65326
G1 X97.489 Y120.74 E89.33447
G1 X97.113 Y120.142 E90.09737
G1 X96.851 Y119.691 E90.66067
G1 X96.734 Y119.475 E90.92598
G1 X96.491 Y119.009 E91.49357
G1 X96.188 Y118.373 E92.25442
G1 X95.945 Y117.799 E92.92761
G1 X95.718 Y117.212 E93.60732
G1 X95.556 Y116.744 E94.14218
G1 X95.372 Y116.141 E94.82307
G1 X95.217 Y115.57 E95.46206
G1 X95.097 Y115.055 E96.03316
G1 X94.963 Y114.364 E96.79335
G1 X94.867 Y113.746 E97.46879
G1 X94.791 Y113.086 E98.1863
G1 X94.746 Y112.507 E98.81351
G1 X94.72 Y111.777 E99.60241
G1 X94.721 Y111.215 E100.20937
G1 X94.741 Y110.576 E100.89983
G1 X94.795 Y109.871 E101.66346
G1 X94.859 Y109.306 E102.27756
G1 X94.951 Y108.698 E102.94167
G1 X95.075 Y108.049 E103.65527
G1 X95.247 Y107.312 E104.47262
G1 X95.397 Y106.778 E105.07166
G1 X95.582 Y106.183 E105.74461
G1 X95.733 Y105.748 E106.24191
G1 X95.94 Y105.213 E106.86145
G1 X96.19 Y104.622 E107.55449
G1 X96.476 Y104.021 E108.27331
G1 X96.734 Y103.527 E108.87521
G1 X97.062 Y102.945 E109.59672
G1 X97.425 Y102.359 E110.34119
G1 X97.833 Y101.76 E111.12392
G1 X98.142 Y101.34 E111.68706
G1 X98.587 Y100.779 E112.4604
G1 X98.999 Y100.305 E113.13867
G1 X99.468 Y99.799 E113.88379
G0 F18000 X100.348 Y100.615
G1 F420 X100.936 Y100.044 E114.76899
G1 X101.112 Y99.886 E115.02443
G1 X101.514 Y99.539 E115.59796
G1 X101.97 Y99.171 E116.23081
G1 X102.455 Y98.811 E116.88313
G1 X102.893 Y98.512 E117.45589
G1 X103.449 Y98.16 E118.16659
G1 X104.024 Y97.824 E118.88584
G1 X104.585 Y97.526 E119.5719
G1 X105.331 Y97.188 E120.45641
G1 X105.906 Y96.955 E121.12646
G1 X106.43 Y96.765 E121.72844
G1 X106.621 Y96.701 E121.94599
G1 X107.108 Y96.548 E122.49729
G1 X107.68 Y96.393 E123.13733
G1 X108.307 Y96.249 E123.83212
G1 X109.005 Y96.116 E124.59953
G1 X109.871 Y96.002 E125.54287
G1 X110.517 Y95.949 E126.2429
G1 X111.177 Y95.919 E126.95643
G1 X111.578 Y95.915 E127.38954
G1 X112.148 Y95.93 E128.00535
G1 X112.809 Y95.973 E128.72074
G1 X113.417 Y96.036 E129.38089
G1 X114.065 Y96.128 E130.08775
G1 X114.613 Y96.231 E130.68996
G1 X115.119 Y96.341 E131.2492
G1 X115.745 Y96.504 E131.94782
G1 X116.317 Y96.68 E132.59416
G1 X116.869 Y96.871 E133.225
G1 X117.473 Y97.106 E133.92496
G1 X118.061 Y97.362 E134.61757
G1 X118.284 Y97.471 E134.88564
G1 X118.896 Y97.786 E135.62902
G1 X119.357 Y98.042 E136.19851
G1 X119.954 Y98.408 E136.9548
G1 X120.522 Y98.792 E137.69527
G1 X120.831 Y99.019 E138.10936
G1 X121.305 Y99.388 E138.75811
G1 X121.722 Y99.734 E139.34332
G1 X122.123 Y100.099 E139.92894
G1 X122.643 Y100.607 E140.71405
G1 X123.017 Y101 E141.29997
G1 X123.396 Y101.436 E141.92388
G1 X123.75 Y101.869 E142.52792
G1 X124.086 Y102.312 E143.1284
G1 X124.454 Y102.839 E143.8226
G1 X124.752 Y103.3 E144.41544
G1 X125.071 Y103.842 E145.09466
G1 X125.407 Y104.466 E145.86007
G1 X125.766 Y105.228 E146.76979
G1 X126.005 Y105.804 E147.4433
G1 X126.205 Y106.339 E148.06015
G1 X126.425 Y107.017 E148.82997
G1 X126.612 Y107.69 E149.58435
G1 X126.696 Y108.053 E149.98675
G1 X126.825 Y108.682 E150.68021
G1 X126.935 Y109.345 E151.40604
G1 X126.99 Y109.802 E151.90316
G1 X127.044 Y110.397 E152.5484
G1 X127.078 Y111.039 E153.24273
G1 X127.083 Y111.527 E153.7698
G1 X127.071 Y112.108 E154.39741
G1 X127.037 Y112.684 E155.02058
G1 X126.971 Y113.382 E155.77778
G1 X126.879 Y114.033 E156.48784
G1 X126.835 Y114.271 E156.74924
G1 X126.71 Y114.882 E157.42279
G1 X126.591 Y115.384 E157.97997
G1 X126.4 Y116.062 E158.74071
G1 X126.198 Y116.686 E159.44907
G1 X126.067 Y117.039 E159.85571
G1 X125.842 Y117.589 E160.49749
G1 X125.745 Y117.812 E160.76013
G1 X125.464 Y118.418 E161.48155
G1 X125.292 Y118.755 E161.89017
G1 X125.024 Y119.242 E162.49051
G1 X124.722 Y119.75 E163.12878
G1 X124.387 Y120.264 E163.7914
G1 X124.03 Y120.768 E164.45844
G1 X123.467 Y121.482 E165.44044
G1 X123.318 Y121.655 E165.68703
G1 X122.91 Y122.114 E166.35028
G1 X122.626 Y122.412 E166.79487
G1 X122.113 Y122.91 E167.56703
G1 X121.673 Y123.306 E168.20634
G1 X121.197 Y123.698 E168.87231
G1 X120.655 Y124.111 E169.60824
G1 X119.959 Y124.589 E170.52013
G1 X119.346 Y124.965 E171.29678
G1 X118.878 Y125.225 E171.87499
G1 X118.293 Y125.524 E172.58453
G1 X117.706 Y125.796 E173.28324
G1 X116.815 Y126.149 E174.31829
G1 X116.241 Y126.345 E174.97335
G1 X115.669 Y126.517 E175.61844
G1 X115.052 Y126.673 E176.30577
G1 X114.56 Y126.779 E176.84932
G1 X113.92 Y126.896 E177.55197
G1 X113.326 Y126.977 E178.19943
G1 X112.799 Y127.03 E178.77146
G1 X112.151 Y127.071 E179.4727
G1 X111.617 Y127.086 E180.04965
G1 X111.13 Y127.081 E180.57564
G1 X110.58 Y127.056 E181.17025
G1 X109.873 Y126.997 E181.93646
G1 X109.28 Y126.924 E182.58174
G1 X108.689 Y126.828 E183.22839
G1 X108.044 Y126.696 E183.93942
G1 X107.398 Y126.537 E184.65793
G1 X106.647 Y126.309 E185.50556
G1 X106.447 Y126.241 E185.7337
G1 X105.973 Y126.07 E186.27792
G1 X105.393 Y125.84 E186.95177
G1 X104.709 Y125.534 E187.76105
G1 X104.453 Y125.403 E188.07162
G1 X103.823 Y125.062 E188.8453
G1 X103.496 Y124.87 E189.25483
G1 X102.941 Y124.519 E189.96405
G1 X102.465 Y124.194 E190.58653
G1 X102.317 Y124.087 E190.78376
G1 X101.88 Y123.76 E191.37323
G1 X101.555 Y123.497 E191.82476
G1 X101.048 Y123.055 E192.55118
G1 X100.583 Y122.623 E193.23666
G1 X100.301 Y122.338 E193.66967
G1 X99.825 Y121.821 E194.42865
G1 X99.479 Y121.418 E195.0023
G1 X99.128 Y120.976 E195.61187
G1 X98.816 Y120.554 E196.17866
G1 X98.483 Y120.068 E196.81493
G1 X98.133 Y119.511 E197.5254
G1 X97.798 Y118.92 E198.25909
G1 X97.555 Y118.454 E198.82668
G1 X97.289 Y117.896 E199.49429
G1 X97.064 Y117.366 E200.11614
G1 X96.837 Y116.779 E200.79585
G1 X96.704 Y116.393 E201.23678
G1 X96.52 Y115.79 E201.91767
G1 X96.378 Y115.266 E202.504
G1 X96.223 Y114.576 E203.26777
G1 X96.109 Y113.938 E203.96772
G1 X96.027 Y113.356 E204.60249
G1 X95.966 Y112.75 E205.26028
G1 X95.933 Y112.239 E205.81331
G1 X95.92 Y111.779 E206.31031
G1 X95.921 Y111.217 E206.91727
G1 X95.94 Y110.623 E207.55912
G1 X95.988 Y110.006 E208.22749
G1 X96.052 Y109.441 E208.84159
G1 X96.131 Y108.916 E209.41497
G1 X96.247 Y108.311 E210.08028
G1 X96.405 Y107.626 E210.8395
G1 X96.543 Y107.134 E211.39137
G1 X96.728 Y106.539 E212.06431
G1 X96.852 Y106.181 E212.47349
G1 X97.059 Y105.646 E213.09303
G1 X97.292 Y105.098 E213.73615
G1 X97.539 Y104.577 E214.35886
G1 X97.797 Y104.083 E214.96076
G1 X98.102 Y103.544 E215.62961
G1 X98.44 Y102.998 E216.32314
G1 X98.799 Y102.471 E217.01181
G1 X99.108 Y102.051 E217.57495
G1 X99.499 Y101.558 E218.25451
G1 X99.879 Y101.121 E218.87995
G1 X100.348 Y100.615 E219.62507
;MESH:cylinder 8x8.stl
G0 F18000 X113.666 Y102.352
;TYPE:FILL
G1 F420 X120.645 Y109.332 E230.28522
G1 X120.714 Y109.638 E230.62399
G1 X120.767 Y109.936 E230.95088
G1 X120.824 Y110.324 E231.37442
G1 X120.858 Y110.626 E231.70264
G1 X120.883 Y110.978 E232.08376
G1 X120.897 Y111.37 E232.50739
G1 X120.896 Y111.674 E232.83571
G1 X120.881 Y112.067 E233.26046
G1 X120.858 Y112.371 E233.58972
G0 F18000 X120.858 Y112.373
G1 F420 X110.628 Y102.142 E249.21528
G1 X110.368 Y102.168 E249.49748
G1 X110.061 Y102.209 E249.83198
G1 X109.716 Y102.27 E250.21036
G1 X109.342 Y102.35 E250.62342
G1 X109.023 Y102.431 E250.97887
G1 X108.67 Y102.535 E251.37632
G1 X108.365 Y102.636 E251.72331
G1 X108.313 Y102.656 E251.78348
G1 X120.341 Y114.684 E270.15445
G1 X120.309 Y114.774 E270.25761
G1 X120.201 Y115.056 E270.58374
G1 X120.049 Y115.41 E270.99982
G1 X119.901 Y115.715 E271.36595
G1 X119.728 Y116.042 E271.76549
G1 X119.545 Y116.36 E272.16174
G1 X119.408 Y116.579 E272.44072
G1 X106.42 Y103.591 E292.27795
G1 X106.195 Y103.738 E292.56822
G1 X105.882 Y103.961 E292.98328
G1 X105.618 Y104.167 E293.34493
G1 X105.312 Y104.421 E293.77443
G1 X105.107 Y104.607 E294.07338
G1 X104.854 Y104.854 E294.45524
G1 X118.146 Y118.146 E314.75679
G1 X118.091 Y118.202 E314.84156
G1 X117.767 Y118.504 E315.31991
G1 X117.526 Y118.714 E315.66514
G1 X117.244 Y118.94 E316.05544
G1 X116.951 Y119.156 E316.44857
G1 X116.688 Y119.338 E316.79399
G1 X116.578 Y119.407 E316.93423
G1 X103.591 Y106.42 E336.76993
G1 X103.523 Y106.524 E336.90413
G1 X103.367 Y106.784 E337.2316
G1 X103.159 Y107.164 E337.69946
G1 X103.001 Y107.483 E338.08392
G1 X102.873 Y107.765 E338.41839
G1 X102.732 Y108.107 E338.81791
G1 X102.657 Y108.313 E339.05467
G1 X114.684 Y120.341 E357.42488
G1 X114.491 Y120.41 E357.64624
G1 X114.148 Y120.517 E358.03429
G1 X113.798 Y120.614 E358.42654
G1 X113.475 Y120.69 E358.7849
G1 X113.13 Y120.756 E359.16426
G1 X112.796 Y120.808 E359.52933
G1 X112.418 Y120.854 E359.94058
G1 X112.372 Y120.857 E359.99036
G1 X102.141 Y110.626 E375.61669
G1 X102.13 Y110.758 E375.75974
G1 X102.106 Y111.126 E376.15803
G1 X102.1 Y111.499 E376.56092
G1 X102.106 Y111.838 E376.9271
G1 X102.124 Y112.154 E377.26893
G1 X102.159 Y112.545 E377.6929
G1 X102.197 Y112.846 E378.02056
G1 X102.254 Y113.19 E378.39714
G1 X102.327 Y113.552 E378.79597
G1 X102.355 Y113.669 E378.9259
G1 X109.33 Y120.643 E389.57841
;MESH:NONMESH
G0 F600 X109.33 Y120.643 Z1.8
G0 F18000 X109.33 Y102.354
;TIME_ELAPSED:52.565384
;LAYER:1
;TYPE:FILL
;MESH:cylinder 8x8.stl
G1 F420 X102.356 Y109.328 E400.23015
G1 X102.271 Y109.677 E400.61809
G1 X102.256 Y109.773 E400.72303
G1 X102.227 Y109.912 E400.87638
G1 X102.15 Y110.522 E401.54041
G1 X102.118 Y110.895 E401.94473
G1 X102.104 Y111.2 E402.27448
G1 X102.101 Y111.439 E402.53262
G1 X102.104 Y111.796 E402.91819
G1 X102.119 Y112.104 E403.25122
G1 X102.142 Y112.37 E403.53958
G1 X112.373 Y102.14 E419.16514
G1 X112.383 Y102.141 E419.17599
G1 X112.736 Y102.18 E419.55955
G1 X113.076 Y102.232 E419.93102
G1 X113.428 Y102.298 E420.3178
G1 X113.555 Y102.326 E420.45826
G1 X113.767 Y102.378 E420.69401
G1 X113.898 Y102.41 E420.83965
G1 X114.083 Y102.463 E421.04748
G1 X114.455 Y102.577 E421.46768
G1 X114.571 Y102.616 E421.59986
G1 X114.686 Y102.655 E421.731
G1 X102.659 Y114.682 E440.10045
G1 X102.724 Y114.865 E440.31019
G0 F18000 X102.724 Y114.866
G1 F420 X102.765 Y114.969 E440.42992
G1 X102.845 Y115.164 E440.65755
G1 X102.909 Y115.312 E440.83169
G1 X102.979 Y115.471 E441.01932
G1 X103.145 Y115.807 E441.42407
G1 X103.205 Y115.92 E441.56225
G1 X103.317 Y116.127 E441.81643
G1 X103.482 Y116.405 E442.16557
G0 F18000 X103.483 Y116.405
G1 F420 X103.562 Y116.533 E442.32802
G1 X103.592 Y116.577 E442.38554
G1 X116.579 Y103.59 E462.22124
G1 X116.631 Y103.623 E462.28775
G1 X116.915 Y103.816 E462.6586
G1 X117.027 Y103.896 E462.80725
G1 X117.19 Y104.018 E463.02713
G1 X117.494 Y104.258 E463.44544
G1 X117.579 Y104.33 E463.56575
G1 X117.738 Y104.468 E463.79312
G1 X117.85 Y104.569 E463.956
G1 X118.014 Y104.723 E464.19897
G1 X118.144 Y104.854 E464.39829
G1 X104.854 Y118.144 E484.69678
G1 X104.868 Y118.161 E484.72057
G1 X105.023 Y118.31 E484.95277
G1 X105.126 Y118.407 E485.10557
G1 X105.281 Y118.548 E485.33187
G1 X105.375 Y118.629 E485.46589
G1 X105.658 Y118.864 E485.86316
G1 X105.822 Y118.991 E486.08718
G1 X106.095 Y119.189 E486.45141
G1 X106.21 Y119.269 E486.6027
G1 X106.387 Y119.388 E486.83305
G1 X106.418 Y119.408 E486.87289
G1 X119.407 Y106.42 E506.71089
G1 X119.531 Y106.616 E506.96137
G1 X119.601 Y106.733 E507.10862
G1 X119.773 Y107.038 E507.48679
G1 X119.933 Y107.352 E507.8674
G1 X120.214 Y107.936 E508.56733
G1 X120.341 Y108.313 E508.99697
G1 X108.311 Y120.344 E527.37176
