;FLAVOR:UltiGCode
;TIME:800
;MATERIAL:2341
;MATERIAL2:0
;NOZZLE_DIAMETER:0.8
;MINX:95.24
;MINY:95.24
;MINZ:0.5
;MAXX:127.76
;MAXY:127.76
;MAXZ:10
;Generated with Cura_SteamEngine 4.9.1
M82 ;absolute extrusion mode
G0 F3000 Y50 ;avoid prime blob
G92 E0
G92 E0
;LAYER_COUNT:20
;LAYER:0
M107
G0 F7200 X97.17 Y96.997 Z0.5
;TYPE:SKIRT
G1 F420 X97.707 Y96.536 E0.29725
G1 X98.292 Y96.139 E0.59418
G1 X98.918 Y95.81 E0.8912
G1 X99.578 Y95.554 E1.18853
G1 X100.262 Y95.374 E1.48559
G1 X100.962 Y95.273 E1.78263
G1 X101.655 Y95.242 E2.07398
G1 X101.83 Y95.24 E2.14749
G1 X120.793 Y95.24 E10.11195
G1 X121.581 Y95.251 E10.44294
G1 X122.286 Y95.301 E10.73978
G1 X122.982 Y95.43 E11.03708
G1 X123.658 Y95.637 E11.33401
G1 X124.307 Y95.919 E11.63122
G1 X124.92 Y96.272 E11.92831
G1 X125.489 Y96.693 E12.22559
G1 X126.007 Y97.175 E12.52277
G1 X126.467 Y97.712 E12.81975
G1 X126.864 Y98.297 E13.11668
G1 X127.192 Y98.924 E13.41388
G1 X127.447 Y99.584 E13.71105
G1 X127.627 Y100.268 E14.00811
G1 X127.728 Y100.968 E14.30516
G1 X127.758 Y101.654 E14.59355
G1 X127.76 Y101.83 E14.66748
G1 X127.76 Y120.841 E22.6521
G1 X127.751 Y121.568 E22.95746
G1 X127.702 Y122.274 E23.25469
G1 X127.574 Y122.97 E23.55191
G1 X127.368 Y123.647 E23.84913
G1 X127.087 Y124.296 E24.14616
G1 X126.735 Y124.91 E24.44341
G1 X126.316 Y125.479 E24.74019
G1 X125.835 Y125.998 E25.03739
G1 X125.299 Y126.46 E25.3346
G1 X124.714 Y126.857 E25.63153
G1 X124.088 Y127.187 E25.92875
G1 X123.429 Y127.443 E26.22568
G1 X122.745 Y127.624 E26.52285
G1 X122.045 Y127.726 E26.81995
G1 X121.345 Y127.758 E27.11426
G1 X121.17 Y127.76 E27.18776
G1 X102.126 Y127.759 E35.18624
G1 X101.428 Y127.75 E35.47943
G1 X100.723 Y127.701 E35.77624
G1 X100.027 Y127.573 E36.07347
G1 X99.35 Y127.367 E36.37068
G1 X98.701 Y127.086 E36.66771
G1 X98.088 Y126.733 E36.96481
G1 X97.518 Y126.314 E37.26193
G1 X97 Y125.833 E37.55882
G1 X96.538 Y125.296 E37.85634
G1 X96.141 Y124.711 E38.15328
G1 X95.812 Y124.085 E38.4503
G1 X95.556 Y123.426 E38.74723
G1 X95.375 Y122.742 E39.0444
G1 X95.273 Y122.042 E39.3415
G1 X95.242 Y121.327 E39.64208
G1 X95.24 Y121.158 E39.71307
G1 X95.241 Y102.089 E47.72205
G1 X95.25 Y101.424 E48.00137
G1 X95.299 Y100.719 E48.29819
G1 X95.428 Y100.023 E48.59549
G1 X95.634 Y99.346 E48.8927
G1 X95.916 Y98.698 E49.18951
G1 X96.269 Y98.084 E49.48698
G1 X96.689 Y97.515 E49.78401
G1 X97.17 Y96.997 E50.0809
G0 F7200 X97.99 Y97.387
G1 F420 X98.515 Y96.991 E50.35709
G1 X99.085 Y96.661 E50.63372
G1 X99.69 Y96.403 E50.90996
G1 X100.323 Y96.22 E51.18671
G1 X100.973 Y96.116 E51.46318
G1 X101.678 Y96.082 E51.75962
G1 X101.83 Y96.08 E51.82347
G1 X120.793 Y96.08 E59.78793
G1 X121.569 Y96.091 E60.11388
G1 X122.225 Y96.14 E60.39017
G1 X122.87 Y96.268 E60.66635
G1 X123.496 Y96.474 E60.94314
G1 X124.091 Y96.754 E61.21933
G1 X124.648 Y97.105 E61.49584
G1 X125.159 Y97.52 E61.77233
G1 X125.616 Y97.994 E62.04887
G1 X126.012 Y98.52 E62.32539
G1 X126.341 Y99.09 E62.60181
G1 X126.598 Y99.695 E62.87789
G1 X126.781 Y100.328 E63.15463
G1 X126.885 Y100.978 E63.43111
G1 X126.918 Y101.678 E63.72543
G1 X126.92 Y101.83 E63.78928
G1 X126.92 Y120.831 E71.7697
G1 X126.911 Y121.558 E72.07506
G1 X126.862 Y122.215 E72.35177
G1 X126.735 Y122.86 E72.62787
G1 X126.531 Y123.486 E72.9044
G1 X126.252 Y124.082 E73.18079
G1 X125.902 Y124.64 E73.45743
G1 X125.488 Y125.151 E73.73365
G1 X125.015 Y125.609 E74.01018
G1 X124.49 Y126.006 E74.28663
G1 X123.921 Y126.336 E74.56289
G1 X123.315 Y126.595 E74.83968
G1 X122.683 Y126.778 E75.11602
G1 X122.034 Y126.884 E75.39222
G1 X121.322 Y126.918 E75.6916
G1 X121.17 Y126.92 E75.75544
G1 X102.137 Y126.92 E83.7493
G1 X101.439 Y126.911 E84.04249
G1 X100.783 Y126.862 E84.31877
G1 X100.137 Y126.734 E84.59537
G1 X99.512 Y126.53 E84.8715
G1 X98.916 Y126.25 E85.14807
G1 X98.358 Y125.901 E85.42449
G1 X97.847 Y125.486 E85.70097
G1 X97.389 Y125.013 E85.9775
G1 X96.993 Y124.488 E86.25369
G1 X96.663 Y123.918 E86.53032
G1 X96.404 Y123.313 E86.80673
G1 X96.221 Y122.681 E87.08307
G1 X96.116 Y122.031 E87.35961
G1 X96.082 Y121.304 E87.66528
G1 X96.08 Y121.158 E87.72661
G1 X96.08 Y102.101 E95.73055
G1 X96.089 Y101.436 E96.00987
G1 X96.138 Y100.779 E96.28658
G1 X96.266 Y100.134 E96.56276
G1 X96.472 Y99.508 E96.83955
G1 X96.751 Y98.913 E97.11556
G1 X97.101 Y98.355 E97.39221
G1 X97.516 Y97.844 E97.66869
G1 X97.99 Y97.387 E97.94523
;MESH:20mmTestCube_repaired.stl
G0 F7200 X120.5 Y101.92
;TYPE:FILL
G1 F420 X120.5 Y121.08 E105.99243
G1 X119 Y121.08 E106.62243
G1 X119 Y101.92 E114.66963
G1 X117.5 Y101.92 E115.29963
G1 X117.5 Y121.08 E123.34683
G1 X116 Y121.08 E123.97683
G1 X116 Y101.92 E132.02403
G1 X114.5 Y101.92 E132.65403
G1 X114.5 Y121.08 E140.70123
G1 X113 Y121.08 E141.33123
G1 X113 Y101.92 E149.37843
G1 X111.5 Y101.92 E150.00843
G1 X111.5 Y121.08 E158.05563
G1 X110 Y121.08 E158.68563
G1 X110 Y101.92 E166.73283
G1 X108.5 Y101.92 E167.36283
G1 X108.5 Y121.08 E175.41003
G1 X107 Y121.08 E176.04003
G1 X107 Y101.92 E184.08723
G1 X105.5 Y101.92 E184.71723
G1 X105.5 Y121.08 E192.76443
G1 X104 Y121.08 E193.39443
G1 X104 Y101.92 E201.44163
G1 X102.5 Y101.92 E202.07163
G1 X102.5 Y121.08 E210.11883
;MESH:NONMESH
G0 F600 X102.5 Y121.08 Z1
G0 F7200 X101.919 Y120.5
;TIME_ELAPSED:73.053571
;LAYER:1
;TYPE:FILL
;MESH:20mmTestCube_repaired.stl
G1 F420 X121.079 Y120.5 E218.16603
G1 X121.079 Y119 E218.79603
G1 X101.919 Y119 E226.84323
G1 X101.92 Y117.5 E227.47323
G1 X121.08 Y117.5 E235.52043
G1 X121.08 Y116 E236.15043
G1 X101.92 Y116 E244.19763
G1 X101.92 Y114.5 E244.82763
G1 X121.08 Y114.5 E252.87483
G1 X121.08 Y113 E253.50483
G1 X101.92 Y113 E261.55203
G1 X101.92 Y111.5 E262.18203
G1 X121.08 Y111.5 E270.22923
G1 X121.08 Y110 E270.85923
G1 X101.92 Y110 E278.90643
G1 X101.92 Y108.5 E279.53643
G1 X121.08 Y108.5 E287.58363
G1 X121.08 Y107 E288.21363
G1 X101.92 Y107 E296.26083
G1 X101.92 Y105.5 E296.89083
G1 X121.08 Y105.5 E304.93803
G1 X121.08 Y104 E305.56803
G1 X101.92 Y104 E313.61523
G1 X101.92 Y102.5 E314.24523
G1 X121.08 Y102.5 E322.29243
;MESH:NONMESH
G0 F600 X121.08 Y102.5 Z1.5
G0 F7200 X120.5 Y101.92
;TIME_ELAPSED:111.345396
;LAYER:2
;TYPE:FILL
;MESH:20mmTestCube_repaired.stl
G1 F420 X120.5 Y121.08 E330.33963
G1 X119 Y121.08 E330.96963
G1 X119 Y101.92 E339.01683
G1 X117.5 Y101.92 E339.64683
G1 X117.5 Y121.08 E347.69403
G1 X116 Y121.08 E348.32403
G1 X116 Y101.92 E356.37123
G1 X114.5 Y101.92 E357.00123
G1 X114.5 Y121.08 E365.04843
G1 X113 Y121.08 E365.67843
G1 X113 Y101.92 E373.72563
G1 X111.5 Y101.92 E374.35563
G1 X111.5 Y121.08 E382.40283
G1 X110 Y121.08 E383.03283
G1 X110 Y101.92 E391.08003
G1 X108.5 Y101.92 E391.71003
G1 X108.5 Y121.08 E399.75723
G1 X107 Y121.08 E400.38723
G1 X107 Y101.92 E408.43443
G1 X105.5 Y101.92 E409.06443
G1 X105.5 Y121.08 E417.11163
G1 X104 Y121.08 E417.74163
G1 X104 Y101.92 E425.78883
G1 X102.5 Y101.92 E426.41883
G1 X102.5 Y121.08 E434.46603
;MESH:NONMESH
G0 F600 X102.5 Y121.08 Z2
G0 F7200 X101.919 Y120.5
;TIME_ELAPSED:149.637235
;LAYER:3
;TYPE:FILL
;MESH:20mmTestCube_repaired.stl
G1 F420 X121.079 Y120.5 E442.51323
G1 X121.079 Y119 E443.14323
G1 X101.919 Y119 E451.19043
G1 X101.92 Y117.5 E451.82043
G1 X121.08 Y117.5 E459.86763
G1 X121.08 Y116 E460.49763
G1 X101.92 Y116 E468.54483
G1 X101.92 Y114.5 E469.17483
G1 X121.08 Y114.5 E477.22203
G1 X121.08 Y113 E477.85203
G1 X101.92 Y113 E485.89923
G1 X101.92 Y111.5 E486.52923
G1 X121.08 Y111.5 E494.57643
G1 X121.08 Y110 E495.20643
G1 X101.92 Y110 E503.25363
G1 X101.92 Y108.5 E503.88363
G1 X121.08 Y108.5 E511.93083
G1 X121.08 Y107 E512.56083
G1 X101.92 Y107 E520.60803
G1 X101.92 Y105.5 E521.23803
G1 X121.08 Y105.5 E529.28523
G1 X121.08 Y104 E529.91523
G1 X101.92 Y104 E537.96243
G1 X101.92 Y102.5 E538.59243
G1 X121.08 Y102.5 E546.63963
;MESH:NONMESH
G0 F600 X121.08 Y102.5 Z2.5
G0 F7200 X120.5 Y101.92
;TIME_ELAPSED:187.929061
;LAYER:4
;TYPE:FILL
;MESH:20mmTestCube_repaired.stl
G1 F420 X120.5 Y121.08 E554.68683
G1 X119 Y121.08 E555.31683
G1 X119 Y101.92 E563.36403
G1 X117.5 Y101.92 E563.99403
G1 X117.5 Y121.08 E572.04123
G1 X116 Y121.08 E572.67123
G1 X116 Y101.92 E580.71843
G1 X114.5 Y101.92 E581.34843
G1 X114.5 Y121.08 E589.39563
G1 X113 Y121.08 E590.02563
G1 X113 Y101.92 E598.07283
G1 X111.5 Y101.92 E598.70283
G1 X111.5 Y121.08 E606.75003
G1 X110 Y121.08 E607.38003
G1 X110 Y101.92 E615.42723
G1 X108.5 Y101.92 E616.05723
G1 X108.5 Y121.08 E624.10443
G1 X107 Y121.08 E624.73443
G1 X107 Y101.92 E632.78163
G1 X105.5 Y101.92 E633.41163
G1 X105.5 Y121.08 E641.45883
G1 X104 Y121.08 E642.08883
G1 X104 Y101.92 E650.13603
G1 X102.5 Y101.92 E650.76603
G1 X102.5 Y121.08 E658.81323
;MESH:NONMESH
G0 F600 X102.5 Y121.08 Z3
G0 F7200 X101.919 Y120.5
;TIME_ELAPSED:226.220900
;LAYER:5
;TYPE:FILL
;MESH:20mmTestCube_repaired.stl
G1 F420 X121.079 Y120.5 E666.86043
G1 X121.079 Y119 E667.49043
G1 X101.919 Y119 E675.53763
G1 X101.92 Y117.5 E676.16763
G1 X121.08 Y117.5 E684.21483
G1 X121.08 Y116 E684.84483
G1 X101.92 Y116 E692.89203
G1 X101.92 Y114.5 E693.52203
G1 X121.08 Y114.5 E701.56923
G1 X121.08 Y113 E702.19923
G1 X101.92 Y113 E710.24643
G1 X101.92 Y111.5 E710.87643
G1 X121.08 Y111.5 E718.92363
G1 X121.08 Y110 E719.55363
G1 X101.92 Y110 E727.60083
G1 X101.92 Y108.5 E728.23083
G1 X121.08 Y108.5 E736.27803
G1 X121.08 Y107 E736.90803
G1 X101.92 Y107 E744.95523
G1 X101.92 Y105.5 E745.58523
G1 X121.08 Y105.5 E753.63243
G1 X121.08 Y104 E754.26243
G1 X101.92 Y104 E762.30963
G1 X101.92 Y102.5 E762.93963
G1 X121.08 Y102.5 E770.98683
;MESH:NONMESH
G0 F600 X121.08 Y102.5 Z3.5
G0 F7200 X120.5 Y101.92
;TIME_ELAPSED:264.512725
;LAYER:6
;TYPE:FILL
;MESH:20mmTestCube_repaired.stl
G1 F420 X120.5 Y121.08 E779.03403
G1 X119 Y121.08 E779.66403
G1 X119 Y101.92 E787.71123
G1 X117.5 Y101.92 E788.34123
G1 X117.5 Y121.08 E796.38843
G1 X116 Y121.08 E797.01843
G1 X116 Y101.92 E805.06563
G1 X114.5 Y101.92 E805.69563
G1 X114.5 Y121.08 E813.74283
G1 X113 Y121.08 E814.37283
G1 X113 Y101.92 E822.42003
G1 X111.5 Y101.92 E823.05003
G1 X111.5 Y121.08 E831.09723
G1 X110 Y121.08 E831.72723
G1 X110 Y101.92 E839.77443
G1 X108.5 Y101.92 E840.40443
G1 X108.5 Y121.08 E848.45163
G1 X107 Y121.08 E849.08163
G1 X107 Y101.92 E857.12883
G1 X105.5 Y101.92 E857.75883
G1 X105.5 Y121.08 E865.80603
G1 X104 Y121.08 E866.43603
G1 X104 Y101.92 E874.48323
G1 X102.5 Y101.92 E875.11323
G1 X102.5 Y121.08 E883.16043
;MESH:NONMESH
G0 F600 X102.5 Y121.08 Z4
G0 F7200 X101.919 Y120.5
;TIME_ELAPSED:302.804564
;LAYER:7
;TYPE:FILL
;MESH:20mmTestCube_repaired.stl
G1 F420 X121.079 Y120.5 E891.20763
G1 X121.079 Y119 E891.83763
G1 X101.919 Y119 E899.88483
G1 X101.92 Y117.5 E900.51483
G1 X121.08 Y117.5 E908.56203
G1 X121.08 Y116 E909.19203
G1 X101.92 Y116 E917.23923
G1 X101.92 Y114.5 E917.86923
G1 X121.08 Y114.5 E925.91643
G1 X121.08 Y113 E926.54643
G1 X101.92 Y113 E934.59363
G1 X101.92 Y111.5 E935.22363
G1 X121.08 Y111.5 E943.27083
G1 X121.08 Y110 E943.90083
G1 X101.92 Y110 E951.94803
G1 X101.92 Y108.5 E952.57803
G1 X121.08 Y108.5 E960.62523
G1 X121.08 Y107 E961.25523
G1 X101.92 Y107 E969.30243
G1 X101.92 Y105.5 E969.93243
G1 X121.08 Y105.5 E977.97963
G1 X121.08 Y104 E978.60963
G1 X101.92 Y104 E986.65683
G1 X101.92 Y102.5 E987.28683
G1 X121.08 Y102.5 E995.33403
;MESH:NONMESH
G0 F600 X121.08 Y102.5 Z4.5
G0 F7200 X120.5 Y101.92
;TIME_ELAPSED:341.096389
;LAYER:8
;TYPE:FILL
;MESH:20mmTestCube_repaired.stl
G1 F420 X120.5 Y121.08 E1003.38123
G1 X119 Y121.08 E1004.01123
G1 X119 Y101.92 E1012.05843
G1 X117.5 Y101.92 E1012.68843
G1 X117.5 Y121.08 E1020.73563
G1 X116 Y121.08 E1021.36563
G1 X116 Y101.92 E1029.41283
G1 X114.5 Y101.92 E1030.04283
G1 X114.5 Y121.08 E1038.09003
G1 X113 Y121.08 E1038.72003
G1 X113 Y101.92 E1046.76723
G1 X111.5 Y101.92 E1047.39723
G1 X111.5 Y121.08 E1055.44443
G1 X110 Y121.08 E1056.07443
G1 X110 Y101.92 E1064.12163
G1 X108.5 Y101.92 E1064.75163
G1 X108.5 Y121.08 E1072.79883
G1 X107 Y121.08 E1073.42883
G1 X107 Y101.92 E1081.47603
G1 X105.5 Y101.92 E1082.10603
G1 X105.5 Y121.08 E1090.15323
G1 X104 Y121.08 E1090.78323
G1 X104 Y101.92 E1098.83043
G1 X102.5 Y101.92 E1099.46043
G1 X102.5 Y121.08 E1107.50763
;MESH:NONMESH
G0 F600 X102.5 Y121.08 Z5
G0 F7200 X101.919 Y120.5
;TIME_ELAPSED:379.388229
;LAYER:9
;TYPE:FILL
;MESH:20mmTestCube_repaired.stl
G1 F420 X121.079 Y120.5 E1115.55483
G1 X121.079 Y119 E1116.18483
G1 X101.919 Y119 E1124.23203
G1 X101.92 Y117.5 E1124.86203
G1 X121.08 Y117.5 E1132.90923
G1 X121.08 Y116 E1133.53923
G1 X101.92 Y116 E1141.58643
G1 X101.92 Y114.5 E1142.21643
G1 X121.08 Y114.5 E1150.26363
G1 X121.08 Y113 E1150.89363
G1 X101.92 Y113 E1158.94083
G1 X101.92 Y111.5 E1159.57083
G1 X121.08 Y111.5 E1167.61803
G1 X121.08 Y110 E1168.24803
G1 X101.92 Y110 E1176.29523
G1 X101.92 Y108.5 E1176.92523
G1 X121.08 Y108.5 E1184.97243
G1 X121.08 Y107 E1185.60243
G1 X101.92 Y107 E1193.64963
G1 X101.92 Y105.5 E1194.27963
G1 X121.08 Y105.5 E1202.32683
G1 X121.08 Y104 E1202.95683
G1 X101.92 Y104 E1211.00403
G1 X101.92 Y102.5 E1211.63403
G1 X121.08 Y102.5 E1219.68123
;MESH:NONMESH
G0 F600 X121.08 Y102.5 Z5.5
G0 F7200 X120.5 Y101.92
;TIME_ELAPSED:417.680054
;LAYER:10
;TYPE:FILL
;MESH:20mmTestCube_repaired.stl
G1 F420 X120.5 Y121.08 E1227.72843
G1 X119 Y121.08 E1228.35843
G1 X119 Y101.92 E1236.40563
G1 X117.5 Y101.92 E1237.03563
G1 X117.5 Y121.08 E1245.08283
G1 X116 Y121.08 E1245.71283
G1 X116 Y101.92 E1253.76003
G1 X114.5 Y101.92 E1254.39003
G1 X114.5 Y121.08 E1262.43723
G1 X113 Y121.08 E1263.06723
G1 X113 Y101.92 E1271.11443
G1 X111.5 Y101.92 E1271.74443
G1 X111.5 Y121.08 E1279.79163
G1 X110 Y121.08 E1280.42163
G1 X110 Y101.92 E1288.46883
G1 X108.5 Y101.92 E1289.09883
G1 X108.5 Y121.08 E1297.14603
G1 X107 Y121.08 E1297.77603
G1 X107 Y101.92 E1305.82323
G1 X105.5 Y101.92 E1306.45323
G1 X105.5 Y121.08 E1314.50043
G1 X104 Y121.08 E1315.13043
G1 X104 Y101.92 E1323.17763
G1 X102.5 Y101.92 E1323.80763
G1 X102.5 Y121.08 E1331.85483
;MESH:NONMESH
G0 F600 X102.5 Y121.08 Z6
G0 F7200 X101.919 Y120.5
;TIME_ELAPSED:455.971893
;LAYER:11
;TYPE:FILL
;MESH:20mmTestCube_repaired.stl
G1 F420 X121.079 Y120.5 E1339.90203
G1 X121.079 Y119 E1340.53203
G1 X101.919 Y119 E1348.57923
G1 X101.92 Y117.5 E1349.20923
G1 X121.08 Y117.5 E1357.25643
G1 X121.08 Y116 E1357.88643
G1 X101.92 Y116 E1365.93363
G1 X101.92 Y114.5 E1366.56363
G1 X121.08 Y114.5 E1374.61083
G1 X121.08 Y113 E1375.24083
G1 X101.92 Y113 E1383.28803
G1 X101.92 Y111.5 E1383.91803
G1 X121.08 Y111.5 E1391.96523
G1 X121.08 Y110 E1392.59523
G1 X101.92 Y110 E1400.64243
G1 X101.92 Y108.5 E1401.27243
G1 X121.08 Y108.5 E1409.31963
G1 X121.08 Y107 E1409.94963
G1 X101.92 Y107 E1417.99683
G1 X101.92 Y105.5 E1418.62683
G1 X121.08 Y105.5 E1426.67403
G1 X121.08 Y104 E1427.30403
G1 X101.92 Y104 E1435.35123
G1 X101.92 Y102.5 E1435.98123
G1 X121.08 Y102.5 E1444.02843
;MESH:NONMESH
G0 F600 X121.08 Y102.5 Z6.5
G0 F7200 X120.5 Y101.92
;TIME_ELAPSED:494.263718
;LAYER:12
;TYPE:FILL
;MESH:20mmTestCube_repaired.stl
G1 F420 X120.5 Y121.08 E1452.07563
G1 X119 Y121.08 E1452.70563
G1 X119 Y101.92 E1460.75283
G1 X117.5 Y101.92 E1461.38283
G1 X117.5 Y121.08 E1469.43003
G1 X116 Y121.08 E1470.06003
G1 X116 Y101.92 E1478.10723
G1 X114.5 Y101.92 E1478.73723
G1 X114.5 Y121.08 E1486.78443
G1 X113 Y121.08 E1487.41443
G1 X113 Y101.92 E1495.46163
G1 X111.5 Y101.92 E1496.09163
G1 X111.5 Y121.08 E1504.13883
G1 X110 Y121.08 E1504.76883
G1 X110 Y101.92 E1512.81603
G1 X108.5 Y101.92 E1513.44603
G1 X108.5 Y121.08 E1521.49323
G1 X107 Y121.08 E1522.12323
G1 X107 Y101.92 E1530.17043
G1 X105.5 Y101.92 E1530.80043
G1 X105.5 Y121.08 E1538.84763
G1 X104 Y121.08 E1539.47763
G1 X104 Y101.92 E1547.52483
G1 X102.5 Y101.92 E1548.15483
G1 X102.5 Y121.08 E1556.20203
;MESH:NONMESH
G0 F600 X102.5 Y121.08 Z7
