; generated by PrusaSlicer 2.3.0+win64 on 2022-02-04 at 15:49:38 UTC

; 

; external perimeters extrusion width = 0.84mm
; perimeters extrusion width = 0.84mm
; infill extrusion width = 0.84mm
; solid infill extrusion width = 0.84mm
; top infill extrusion width = 0.84mm

M201 X9000 Y9000 Z500 E10000 ; sets maximum accelerations, mm/sec^2
M203 X500 Y500 Z12 E120 ; sets maximum feedrates, mm/sec
M204 P1500 R1500 T1500 ; sets acceleration (P, T) and retract acceleration (R), mm/sec^2
M205 X10.00 Y10.00 Z0.20 E2.50 ; sets the jerk limits, mm/sec
M205 S0 T0 ; sets the minimum extruding and travel feed rate, mm/sec
M107
M190 S25 ; set bed temperature and wait for it to be reached
M104 S25 ; set temperature
;TYPE:Custom
G28 ; home all axes
G1 Z5 F5000 ; lift nozzle
M109 S25 ; set temperature and wait for it to be reached
G21 ; set units to millimeters
G90 ; use absolute coordinates
M82 ; use absolute distances for extrusion
G92 E0
; Filament gcode
;LAYER_CHANGE
;Z:0.2
;HEIGHT:0.2
G1 Z0.200 F15000.000
G1 X77.095 Y76.441
;TYPE:Skirt
;WIDTH:0.84
G1 F420.000
G1 X77.877 Y75.926 E0.02338
G1 X78.746 Y75.580 E0.04676
G1 X79.668 Y75.418 E0.07014
G1 X100.005 Y75.406 E0.57836
G1 X100.827 Y75.481 E0.59898
G1 X101.627 Y75.703 E0.61972
G1 X102.369 Y76.064 E0.64034
G1 X103.035 Y76.551 E0.66095
G1 X103.603 Y77.149 E0.68157
G1 X104.054 Y77.839 E0.70218
G1 X104.377 Y78.604 E0.72293
G1 X104.556 Y79.410 E0.74355
G1 X104.590 Y100.196 E1.26298
G1 X104.501 Y100.920 E1.28122
G1 X104.297 Y101.627 E1.29959
G1 X103.982 Y102.291 E1.31797
G1 X103.565 Y102.897 E1.33634
G1 X102.859 Y103.596 E1.36117
G1 X102.024 Y104.124 E1.38587
G1 X101.095 Y104.462 E1.41056
G1 X100.115 Y104.593 E1.43526
G1 X79.794 Y104.590 E1.94309
G1 X79.069 Y104.499 E1.96133
G1 X78.368 Y104.295 E1.97957
G1 X77.704 Y103.979 E1.99795
G1 X77.103 Y103.565 E2.01619
G1 X76.404 Y102.859 E2.04102
G1 X75.876 Y102.024 E2.06571
G1 X75.538 Y101.095 E2.09041
G1 X75.407 Y100.115 E2.11511
G1 X75.410 Y79.794 E2.62294
G1 X75.501 Y79.069 E2.64118
G1 X75.705 Y78.368 E2.65942
G1 X76.021 Y77.704 E2.67779
G1 X76.435 Y77.103 E2.69603
G1 X77.006 Y76.530 E2.71627
G1 X77.648 Y77.019 F15000.000
G1 F420.000
G1 X78.296 Y76.606 E2.73548
G1 X79.015 Y76.333 E2.75470
G1 X79.774 Y76.210 E2.77391
G1 X100.005 Y76.203 E3.27946
G1 X100.694 Y76.267 E3.29676
G1 X101.360 Y76.455 E3.31406
G1 X101.981 Y76.761 E3.33136
G1 X102.537 Y77.174 E3.34866
G1 X103.007 Y77.682 E3.36596
G1 X103.376 Y78.262 E3.38314
G1 X103.635 Y78.904 E3.40044
G1 X103.774 Y79.582 E3.41773
G1 X103.794 Y100.144 E3.93157
G1 X103.719 Y100.765 E3.94719
G1 X103.542 Y101.369 E3.96293
G1 X103.269 Y101.932 E3.97855
G1 X102.908 Y102.442 E3.99417
G1 X102.326 Y103.001 E4.01434
G1 X101.634 Y103.427 E4.03464
G1 X100.873 Y103.695 E4.05481
G1 X100.072 Y103.796 E4.07498
G1 X79.851 Y103.794 E4.58029
G1 X79.230 Y103.718 E4.59591
G1 X78.631 Y103.542 E4.61153
G1 X78.068 Y103.269 E4.62715
G1 X77.558 Y102.908 E4.64278
G1 X76.999 Y102.326 E4.66295
G1 X76.573 Y101.634 E4.68324
G1 X76.305 Y100.873 E4.70341
G1 X76.204 Y100.072 E4.72359
G1 X76.206 Y79.851 E5.22890
G1 X76.282 Y79.230 E5.24452
G1 X76.458 Y78.631 E5.26014
G1 X76.731 Y78.068 E5.27576
G1 X77.092 Y77.558 E5.29138
G1 X77.557 Y77.107 E5.30757
G92 E0
G1 X80.420 Y80.420 F15000.000
;TYPE:External perimeter
G1 F420.000
G1 X99.580 Y80.420 E0.47879
G1 X99.580 Y99.580 E0.95759
G1 X80.420 Y99.580 E1.43638
G1 X80.420 Y80.546 E1.91202
G1 X80.986 Y82.463 F15000.000
;TYPE:Internal infill
G1 F420.000
G1 X80.986 Y86.859 E2.02188
G1 X82.120 Y87.163 E2.05123
G1 X86.407 Y82.876 E2.20274
G1 X85.901 Y80.986 E2.25164
G1 X95.205 Y80.986 E2.48415
G1 X91.556 Y84.635 E2.61310
G1 X86.925 Y83.394 E2.73291
G1 X82.638 Y87.681 E2.88443
G1 X83.879 Y92.312 E3.00423
G1 X80.986 Y95.205 E3.10648
G1 X80.986 Y96.242 E3.13237
G1 X84.397 Y92.830 E3.25293
G1 X89.028 Y94.071 E3.37274
G1 X93.315 Y89.784 E3.52426
G1 X92.075 Y85.153 E3.64406
G1 X96.242 Y80.986 E3.79132
G1 X96.811 Y80.986 E3.80556
G1 X99.014 Y81.576 E3.86256
G1 X99.014 Y85.972 E3.97241
G92 E0
G1 X99.014 Y96.576 F15000.000
G1 F420.000
G1 X99.014 Y92.180 E0.10986
G1 X98.982 Y92.061 E0.11294
G1 X99.014 Y92.029 E0.11407
G1 X99.014 Y90.993 E0.13996
G1 X98.464 Y91.543 E0.15940
G1 X93.833 Y90.302 E0.27920
G1 X89.546 Y94.589 E0.43072
G1 X90.732 Y99.014 E0.54521
G1 X97.900 Y99.014 E0.72435
G1 X99.014 Y97.900 E0.76371
G1 X99.014 Y98.937 E0.78961
G1 X98.937 Y99.014 E0.79235
G1 X98.267 Y99.014 E0.80909
;LAYER_CHANGE
;Z:0.7
;HEIGHT:0.5
G1 Z0.700 F15000.000
G1 X99.580 Y99.580
;TYPE:External perimeter
G1 F420.000
G1 X80.420 Y99.580 E1.90939
G1 X80.420 Y80.420 E3.00969
G1 X99.580 Y80.420 E4.11000
G1 X99.580 Y99.454 E5.20306
G1 X80.970 Y82.459 F15000.000
;TYPE:Internal infill
G1 F420.000
G1 X80.970 Y86.855 E5.45552
G1 X82.120 Y87.163 E5.52392
G1 X83.689 Y93.020 E5.87212
G1 X80.970 Y95.740 E6.09300
G1 X80.970 Y98.911 E6.27515
G1 X81.001 Y99.030 E6.28223
G1 X90.357 Y99.030 E6.81948
G1 X89.028 Y94.071 E7.11433
G1 X84.397 Y92.830 E7.38966
G1 X82.828 Y86.973 E7.73785
G1 X86.218 Y83.583 E8.01318
G1 X85.517 Y80.970 E8.16858
G1 X86.276 Y80.970 E8.21214
G1 X86.925 Y83.394 E8.35626
G1 X91.556 Y84.635 E8.63158
G1 X93.126 Y90.491 E8.97978
G1 X89.736 Y93.881 E9.25510
G1 X91.115 Y99.030 E9.56123
G1 X98.402 Y99.030 E9.97971
G1 X99.030 Y98.402 E10.03071
G1 X99.030 Y93.655 E10.30333
G1 X98.464 Y91.543 E10.42894
G1 X93.833 Y90.302 E10.70426
G1 X92.264 Y84.445 E11.05246
G1 X95.654 Y81.055 E11.32778
G1 X95.631 Y80.970 E11.33285
G1 X96.751 Y80.970 E11.39716
G1 X99.030 Y81.580 E11.53267
G1 X99.030 Y85.976 E11.78513
;LAYER_CHANGE
;Z:1.2
;HEIGHT:0.5
G1 Z1.200 F15000.000
G1 X99.580 Y80.420
;TYPE:External perimeter
G1 F420.000
G1 X99.580 Y99.580 E12.88543
G1 X80.420 Y99.580 E13.98573
G1 X80.420 Y80.420 E15.08604
G1 X99.454 Y80.420 E16.17910
G1 X98.896 Y80.970 F15000.000
;TYPE:Internal infill
G1 F420.000
G1 X98.167 Y80.970 E16.22097
G1 X99.030 Y81.201 E16.27232
G1 X99.030 Y81.960 E16.31589
G1 X95.654 Y81.055 E16.51661
G1 X92.264 Y84.445 E16.79194
G1 X86.407 Y82.876 E17.14013
G1 X85.897 Y80.970 E17.25346
G1 X81.500 Y80.970 E17.50592
G1 X82.075 Y99.030 F15000.000
G1 F420.000
G1 X80.970 Y99.030 E17.56939
G1 X80.970 Y95.740 E17.75838
G1 X83.689 Y93.020 E17.97926
G1 X89.546 Y94.589 E18.32746
G1 X90.736 Y99.030 E18.59151
G1 X98.402 Y99.030 E19.03177
G1 X99.030 Y98.402 E19.08277
G1 X99.030 Y92.240 E19.43667
G1 X98.982 Y92.061 E19.44733
G1 X93.126 Y90.491 E19.79553
G1 X89.736 Y93.881 E20.07085
G1 X83.879 Y92.312 E20.41905
G1 X82.638 Y87.681 E20.69437
G1 X80.970 Y87.234 E20.79357
G1 X80.970 Y86.476 E20.83713
G1 X82.828 Y86.973 E20.94760
G1 X86.218 Y83.583 E21.22292
G1 X92.075 Y85.153 E21.57112
G1 X93.315 Y89.784 E21.84644
G1 X99.030 Y91.315 E22.18622
G1 X99.030 Y86.919 E22.43868
M106 S255
;LAYER_CHANGE
;Z:1.7
;HEIGHT:0.5
G1 Z1.700 F15000.000
G1 X99.580 Y80.420
;TYPE:External perimeter
G1 F420.000
G1 X99.580 Y99.580 E23.53898
G1 X80.420 Y99.580 E24.63929
G1 X80.420 Y80.420 E25.73959
G1 X99.454 Y80.420 E26.83265
G1 X99.030 Y85.976 F15000.000
;TYPE:Internal infill
G1 F420.000
G1 X99.030 Y81.580 E27.08511
G1 X96.751 Y80.970 E27.22063
G1 X96.258 Y80.970 E27.24896
G1 X92.075 Y85.153 E27.58870
G1 X93.315 Y89.784 E27.86402
G1 X89.028 Y94.071 E28.21222
G1 X84.397 Y92.830 E28.48754
G1 X80.970 Y96.258 E28.76590
G1 X80.970 Y95.221 E28.82540
G1 X83.879 Y92.312 E29.06168
G1 X82.638 Y87.681 E29.33700
G1 X86.925 Y83.394 E29.68520
G1 X91.556 Y84.635 E29.96052
G1 X95.221 Y80.970 E30.25818
G1 X85.897 Y80.970 E30.79367
G1 X86.407 Y82.876 E30.90700
G1 X82.120 Y87.163 E31.25520
G1 X80.970 Y86.855 E31.32359
G1 X80.970 Y82.459 E31.57605
G1 X99.030 Y96.636 F15000.000
G1 F420.000
G1 X99.030 Y92.240 E31.82851
G1 X98.982 Y92.061 E31.83917
G1 X99.030 Y92.013 E31.84307
G1 X99.030 Y90.976 E31.90257
G1 X98.464 Y91.543 E31.94855
G1 X93.833 Y90.302 E32.22387
G1 X89.546 Y94.589 E32.57207
G1 X90.736 Y99.030 E32.83612
G1 X97.884 Y99.030 E33.24663
G1 X99.030 Y97.884 E33.33971
G1 X99.030 Y98.921 E33.39921
G1 X98.921 Y99.030 E33.40814
G1 X98.251 Y99.030 E33.44661
;LAYER_CHANGE
;Z:2.2
;HEIGHT:0.5
G1 Z2.200 F15000.000
G1 X99.580 Y99.580
;TYPE:External perimeter
G1 F420.000
G1 X80.420 Y99.580 E34.54691
G1 X80.420 Y80.420 E35.64721
G1 X99.580 Y80.420 E36.74751
G1 X99.580 Y99.454 E37.84057
G1 X80.970 Y82.459 F15000.000
;TYPE:Internal infill
G1 F420.000
G1 X80.970 Y86.855 E38.09304
G1 X82.120 Y87.163 E38.16143
G1 X83.689 Y93.020 E38.50963
G1 X80.970 Y95.740 E38.73051
G1 X80.970 Y98.911 E38.91267
G1 X81.001 Y99.030 E38.91974
G1 X90.357 Y99.030 E39.45699
G1 X89.028 Y94.071 E39.75185
G1 X84.397 Y92.830 E40.02717
G1 X82.828 Y86.973 E40.37537
G1 X86.218 Y83.583 E40.65069
G1 X85.517 Y80.970 E40.80609
G1 X86.276 Y80.970 E40.84965
G1 X86.925 Y83.394 E40.99378
G1 X91.556 Y84.635 E41.26910
G1 X93.126 Y90.491 E41.61730
G1 X89.736 Y93.881 E41.89262
G1 X91.115 Y99.030 E42.19874
G1 X98.402 Y99.030 E42.61722
G1 X99.030 Y98.402 E42.66823
G1 X99.030 Y93.655 E42.94084
G1 X98.464 Y91.543 E43.06645
G1 X93.833 Y90.302 E43.34177
G1 X92.264 Y84.445 E43.68997
G1 X95.654 Y81.055 E43.96529
G1 X95.631 Y80.970 E43.97037
G1 X96.751 Y80.970 E44.03467
G1 X99.030 Y81.580 E44.17019
G1 X99.030 Y85.976 E44.42265
;LAYER_CHANGE
;Z:2.7
;HEIGHT:0.5
G1 Z2.700 F15000.000
G1 X99.580 Y80.420
;TYPE:External perimeter
G1 F420.000
G1 X99.580 Y99.580 E45.52295
G1 X80.420 Y99.580 E46.62325
G1 X80.420 Y80.420 E47.72355
G1 X99.454 Y80.420 E48.81661
G1 X98.896 Y80.970 F15000.000
;TYPE:Internal infill
G1 F420.000
G1 X98.167 Y80.970 E48.85848
G1 X99.030 Y81.201 E48.90984
G1 X99.030 Y81.960 E48.95340
G1 X95.654 Y81.055 E49.15413
G1 X92.264 Y84.445 E49.42945
G1 X86.407 Y82.876 E49.77765
G1 X85.897 Y80.970 E49.89097
G1 X81.500 Y80.970 E50.14343
G1 X82.075 Y99.030 F15000.000
G1 F420.000
G1 X80.970 Y99.030 E50.20690
G1 X80.970 Y95.740 E50.39589
G1 X83.689 Y93.020 E50.61677
G1 X89.546 Y94.589 E50.96497
G1 X90.736 Y99.030 E51.22903
G1 X98.402 Y99.030 E51.66928
G1 X99.030 Y98.402 E51.72029
G1 X99.030 Y92.240 E52.07419
G1 X98.982 Y92.061 E52.08484
G1 X93.126 Y90.491 E52.43304
G1 X89.736 Y93.881 E52.70836
G1 X83.879 Y92.312 E53.05656
G1 X82.638 Y87.681 E53.33188
G1 X80.970 Y87.234 E53.43108
G1 X80.970 Y86.476 E53.47464
G1 X82.828 Y86.973 E53.58512
G1 X86.218 Y83.583 E53.86044
G1 X92.075 Y85.153 E54.20864
G1 X93.315 Y89.784 E54.48396
G1 X99.030 Y91.315 E54.82374
G1 X99.030 Y86.919 E55.07620
;LAYER_CHANGE
;Z:3.2
;HEIGHT:0.5
G1 Z3.200 F15000.000
G1 X99.580 Y80.420
;TYPE:External perimeter
G1 F420.000
G1 X99.580 Y99.580 E56.17650
G1 X80.420 Y99.580 E57.27680
G1 X80.420 Y80.420 E58.37710
G1 X99.454 Y80.420 E59.47017
G1 X99.030 Y85.976 F15000.000
;TYPE:Internal infill
G1 F420.000
G1 X99.030 Y81.580 E59.72263
G1 X96.751 Y80.970 E59.85814
G1 X96.258 Y80.970 E59.88648
G1 X92.075 Y85.153 E60.22621
G1 X93.315 Y89.784 E60.50153
G1 X89.028 Y94.071 E60.84973
G1 X84.397 Y92.830 E61.12505
G1 X80.970 Y96.258 E61.40341
G1 X80.970 Y95.221 E61.46291
G1 X83.879 Y92.312 E61.69920
G1 X82.638 Y87.681 E61.97452
G1 X86.925 Y83.394 E62.32272
G1 X91.556 Y84.635 E62.59804
G1 X95.221 Y80.970 E62.89569
G1 X85.897 Y80.970 E63.43119
G1 X86.407 Y82.876 E63.54451
G1 X82.120 Y87.163 E63.89271
G1 X80.970 Y86.855 E63.96111
G1 X80.970 Y82.459 E64.21357
G1 X99.030 Y96.636 F15000.000
G1 F420.000
G1 X99.030 Y92.240 E64.46603
G1 X98.982 Y92.061 E64.47668
G1 X99.030 Y92.013 E64.48058
G1 X99.030 Y90.976 E64.54009
G1 X98.464 Y91.543 E64.58606
G1 X93.833 Y90.302 E64.86138
G1 X89.546 Y94.589 E65.20958
G1 X90.736 Y99.030 E65.47364
G1 X97.884 Y99.030 E65.88414
G1 X99.030 Y97.884 E65.97722
G1 X99.030 Y98.921 E66.03673
G1 X98.921 Y99.030 E66.04565
G1 X98.251 Y99.030 E66.08412
;LAYER_CHANGE
;Z:3.7
;HEIGHT:0.5
G1 Z3.700 F15000.000
G1 X99.580 Y99.580
;TYPE:External perimeter
G1 F420.000
G1 X80.420 Y99.580 E67.18442
G1 X80.420 Y80.420 E68.28472
G1 X99.580 Y80.420 E69.38502
G1 X99.580 Y99.454 E70.47809
G1 X80.970 Y82.459 F15000.000
;TYPE:Internal infill
G1 F420.000
G1 X80.970 Y86.855 E70.73055
G1 X82.120 Y87.163 E70.79895
G1 X83.689 Y93.020 E71.14715
G1 X80.970 Y95.740 E71.36803
G1 X80.970 Y98.911 E71.55018
G1 X81.001 Y99.030 E71.55726
G1 X90.357 Y99.030 E72.09451
G1 X89.028 Y94.071 E72.38936
G1 X84.397 Y92.830 E72.66468
G1 X82.828 Y86.973 E73.01288
G1 X86.218 Y83.583 E73.28820
G1 X85.517 Y80.970 E73.44360
G1 X86.276 Y80.970 E73.48716
G1 X86.925 Y83.394 E73.63129
G1 X91.556 Y84.635 E73.90661
G1 X93.126 Y90.491 E74.25481
G1 X89.736 Y93.881 E74.53013
G1 X91.115 Y99.030 E74.83626
G1 X98.402 Y99.030 E75.25474
G1 X99.030 Y98.402 E75.30574
G1 X99.030 Y93.655 E75.57835
G1 X98.464 Y91.543 E75.70396
G1 X93.833 Y90.302 E75.97929
G1 X92.264 Y84.445 E76.32748
G1 X95.654 Y81.055 E76.60281
G1 X95.631 Y80.970 E76.60788
G1 X96.751 Y80.970 E76.67219
G1 X99.030 Y81.580 E76.80770
G1 X99.030 Y85.976 E77.06016
;LAYER_CHANGE
;Z:4.2
;HEIGHT:0.5
G1 Z4.200 F15000.000
G1 X99.580 Y80.420
;TYPE:External perimeter
G1 F420.000
G1 X99.580 Y99.580 E78.16046
G1 X80.420 Y99.580 E79.26076
G1 X80.420 Y80.420 E80.36106
G1 X99.454 Y80.420 E81.45413
G1 X98.896 Y80.970 F15000.000
;TYPE:Internal infill
G1 F420.000
G1 X98.167 Y80.970 E81.49599
G1 X99.030 Y81.201 E81.54735
G1 X99.030 Y81.960 E81.59091
G1 X95.654 Y81.055 E81.79164
G1 X92.264 Y84.445 E82.06696
G1 X86.407 Y82.876 E82.41516
G1 X85.897 Y80.970 E82.52849
G1 X81.500 Y80.970 E82.78095
G1 X82.075 Y99.030 F15000.000
G1 F420.000
G1 X80.970 Y99.030 E82.84442
G1 X80.970 Y95.740 E83.03341
G1 X83.689 Y93.020 E83.25429
G1 X89.546 Y94.589 E83.60249
G1 X90.736 Y99.030 E83.86654
G1 X98.402 Y99.030 E84.30680
G1 X99.030 Y98.402 E84.35780
G1 X99.030 Y92.240 E84.71170
G1 X98.982 Y92.061 E84.72236
G1 X93.126 Y90.491 E85.07056
G1 X89.736 Y93.881 E85.34588
G1 X83.879 Y92.312 E85.69408
G1 X82.638 Y87.681 E85.96940
G1 X80.970 Y87.234 E86.06860
G1 X80.970 Y86.476 E86.11216
G1 X82.828 Y86.973 E86.22263
G1 X86.218 Y83.583 E86.49795
G1 X92.075 Y85.153 E86.84615
G1 X93.315 Y89.784 E87.12147
G1 X99.030 Y91.315 E87.46125
G1 X99.030 Y86.919 E87.71371
;LAYER_CHANGE
;Z:4.7
;HEIGHT:0.5
G1 Z4.700 F15000.000
G1 X99.580 Y80.420
;TYPE:External perimeter
G1 F420.000
G1 X99.580 Y99.580 E88.81401
G1 X80.420 Y99.580 E89.91431
G1 X80.420 Y80.420 E91.01461
G1 X99.454 Y80.420 E92.10768
G1 X99.030 Y85.976 F15000.000
;TYPE:Internal infill
G1 F420.000
G1 X99.030 Y81.580 E92.36014
G1 X96.751 Y80.970 E92.49565
G1 X96.258 Y80.970 E92.52399
G1 X92.075 Y85.153 E92.86372
G1 X93.315 Y89.784 E93.13904
G1 X89.028 Y94.071 E93.48724
G1 X84.397 Y92.830 E93.76256
G1 X80.970 Y96.258 E94.04092
G1 X80.970 Y95.221 E94.10043
G1 X83.879 Y92.312 E94.33671
G1 X82.638 Y87.681 E94.61203
G1 X86.925 Y83.394 E94.96023
G1 X91.556 Y84.635 E95.23555
G1 X95.221 Y80.970 E95.53321
G1 X85.897 Y80.970 E96.06870
G1 X86.407 Y82.876 E96.18202
G1 X82.120 Y87.163 E96.53022
G1 X80.970 Y86.855 E96.59862
G1 X80.970 Y82.459 E96.85108
G1 X99.030 Y96.636 F15000.000
G1 F420.000
G1 X99.030 Y92.240 E97.10354
G1 X98.982 Y92.061 E97.11420
G1 X99.030 Y92.013 E97.11810
G1 X99.030 Y90.976 E97.17760
G1 X98.464 Y91.543 E97.22358
G1 X93.833 Y90.302 E97.49890
G1 X89.546 Y94.589 E97.84710
G1 X90.736 Y99.030 E98.11115
G1 X97.884 Y99.030 E98.52165
G1 X99.030 Y97.884 E98.61473
G1 X99.030 Y98.921 E98.67424
G1 X98.921 Y99.030 E98.68317
G1 X98.251 Y99.030 E98.72163
;LAYER_CHANGE
;Z:5.2
;HEIGHT:0.5
G1 Z5.200 F15000.000
G1 X99.580 Y99.580
;TYPE:External perimeter
G1 F420.000
G1 X80.420 Y99.580 E99.82194
G1 X80.420 Y80.420 E100.92224
G1 X99.580 Y80.420 E102.02254
G1 X99.580 Y99.454 E103.11560
G1 X80.970 Y82.459 F15000.000
;TYPE:Internal infill
G1 F420.000
G1 X80.970 Y86.855 E103.36806
G1 X82.120 Y87.163 E103.43646
G1 X83.689 Y93.020 E103.78466
G1 X80.970 Y95.740 E104.00554
G1 X80.970 Y98.911 E104.18770
G1 X81.001 Y99.030 E104.19477
G1 X90.357 Y99.030 E104.73202
G1 X89.028 Y94.071 E105.02688
G1 X84.397 Y92.830 E105.30220
G1 X82.828 Y86.973 E105.65040
G1 X86.218 Y83.583 E105.92572
G1 X85.517 Y80.970 E106.08112
G1 X86.276 Y80.970 E106.12468
G1 X86.925 Y83.394 E106.26880
G1 X91.556 Y84.635 E106.54412
G1 X93.126 Y90.491 E106.89232
G1 X89.736 Y93.881 E107.16764
G1 X91.115 Y99.030 E107.47377
G1 X98.402 Y99.030 E107.89225
G1 X99.030 Y98.402 E107.94325
G1 X99.030 Y93.655 E108.21587
