;FLAVOR:Marlin
;TIME:1502
;Filament used: 0.689945m
;Layer height: 0.5
;MINX:95.24
;MINY:95.24
;MINZ:0.5
;MAXX:127.76
;MAXY:127.76
;MAXZ:20
;Generated with Cura_SteamEngine 4.12.1
M140 S25
M105
M190 S25
M104 S25
M105
M109 S25
M82 ;absolute extrusion mode
G21 ;metric values
G90 ;absolute positioning
M82 ;set extruder to absolute mode
M107 ;start with the fan off
G28 Z0 ;move Z to bottom endstops
G28 X0 Y0 ;move X/Y to endstops
G1 X15 Y0 F4000 ;move X/Y to front of printer
G1 Z15.0 F9000 ;move the platform to 15mm
G92 E0 ;zero the extruded length
G1 F200 E10 ;extrude 10 mm of feed stock
G92 E0 ;zero the extruded length again
G1 Y50 F9000
;Put printing message on LCD screen
M117 Printing...
G92 E0
G92 E0
;LAYER_COUNT:40
;LAYER:0
M107
G0 F14400 X97.17 Y96.997 Z0.5
;TYPE:SKIRT
G1 F420 X97.707 Y96.536 E0.0466
G1 X98.292 Y96.139 E0.09314
G1 X98.918 Y95.81 E0.1397
G1 X99.578 Y95.554 E0.18631
G1 X100.262 Y95.374 E0.23287
G1 X100.962 Y95.273 E0.27944
G1 X101.655 Y95.242 E0.32511
G1 X101.83 Y95.24 E0.33663
G1 X120.793 Y95.24 E1.58509
G1 X121.581 Y95.251 E1.63698
G1 X122.286 Y95.301 E1.68351
G1 X122.982 Y95.43 E1.73011
G1 X123.658 Y95.637 E1.77666
G1 X124.307 Y95.919 E1.82325
G1 X124.92 Y96.272 E1.86982
G1 X125.489 Y96.693 E1.91642
G1 X126.007 Y97.175 E1.963
G1 X126.467 Y97.712 E2.00955
G1 X126.864 Y98.297 E2.0561
G1 X127.192 Y98.924 E2.10269
G1 X127.447 Y99.584 E2.14927
G1 X127.627 Y100.268 E2.19584
G1 X127.728 Y100.968 E2.2424
G1 X127.758 Y101.654 E2.28761
G1 X127.76 Y101.83 E2.29919
G1 X127.76 Y120.841 E3.55082
G1 X127.751 Y121.568 E3.59869
G1 X127.702 Y122.274 E3.64528
G1 X127.574 Y122.97 E3.69187
G1 X127.368 Y123.647 E3.73846
G1 X127.087 Y124.296 E3.78502
G1 X126.735 Y124.91 E3.83162
G1 X126.316 Y125.479 E3.87814
G1 X125.835 Y125.998 E3.92473
G1 X125.299 Y126.46 E3.97132
G1 X124.714 Y126.857 E4.01786
G1 X124.088 Y127.187 E4.06445
G1 X123.429 Y127.443 E4.111
G1 X122.745 Y127.624 E4.15758
G1 X122.045 Y127.726 E4.20415
G1 X121.345 Y127.758 E4.25029
G1 X121.17 Y127.76 E4.26181
G1 X102.126 Y127.759 E5.51561
G1 X101.428 Y127.75 E5.56156
G1 X100.723 Y127.701 E5.60809
G1 X100.027 Y127.573 E5.65468
G1 X99.35 Y127.367 E5.70127
G1 X98.701 Y127.086 E5.74783
G1 X98.088 Y126.733 E5.7944
G1 X97.518 Y126.314 E5.84098
G1 X97 Y125.833 E5.88752
G1 X96.538 Y125.296 E5.93416
G1 X96.141 Y124.711 E5.9807
G1 X95.812 Y124.085 E6.02726
G1 X95.556 Y123.426 E6.07381
G1 X95.375 Y122.742 E6.12039
G1 X95.273 Y122.042 E6.16696
G1 X95.242 Y121.327 E6.21408
G1 X95.24 Y121.158 E6.22521
G1 X95.241 Y102.089 E7.48065
G1 X95.25 Y101.424 E7.52444
G1 X95.299 Y100.719 E7.57097
G1 X95.428 Y100.023 E7.61757
G1 X95.634 Y99.346 E7.66416
G1 X95.916 Y98.698 E7.71068
G1 X96.269 Y98.084 E7.75731
G1 X96.689 Y97.515 E7.80387
G1 X97.17 Y96.997 E7.85041
G0 F14400 X97.99 Y97.387
G1 F420 X98.515 Y96.991 E7.89371
G1 X99.085 Y96.661 E7.93707
G1 X99.69 Y96.403 E7.98037
G1 X100.323 Y96.22 E8.02375
G1 X100.973 Y96.116 E8.06709
G1 X101.678 Y96.082 E8.11356
G1 X101.83 Y96.08 E8.12357
G1 X120.793 Y96.08 E9.37204
G1 X121.569 Y96.091 E9.42313
G1 X122.225 Y96.14 E9.46644
G1 X122.87 Y96.268 E9.50973
G1 X123.496 Y96.474 E9.55312
G1 X124.091 Y96.754 E9.59641
G1 X124.648 Y97.105 E9.63976
G1 X125.159 Y97.52 E9.6831
G1 X125.616 Y97.994 E9.72645
G1 X126.012 Y98.52 E9.76979
G1 X126.341 Y99.09 E9.81312
G1 X126.598 Y99.695 E9.8564
G1 X126.781 Y100.328 E9.89978
G1 X126.885 Y100.978 E9.94312
G1 X126.918 Y101.678 E9.98926
G1 X126.92 Y101.83 E9.99927
G1 X126.92 Y120.831 E11.25023
G1 X126.911 Y121.558 E11.2981
G1 X126.862 Y122.215 E11.34148
G1 X126.735 Y122.86 E11.38476
G1 X126.531 Y123.486 E11.4281
G1 X126.252 Y124.082 E11.47143
G1 X125.902 Y124.64 E11.51479
G1 X125.488 Y125.151 E11.55809
G1 X125.015 Y125.609 E11.60144
G1 X124.49 Y126.006 E11.64477
G1 X123.921 Y126.336 E11.68808
G1 X123.315 Y126.595 E11.73147
G1 X122.683 Y126.778 E11.77479
G1 X122.034 Y126.884 E11.81808
G1 X121.322 Y126.918 E11.86501
G1 X121.17 Y126.92 E11.87502
G1 X102.137 Y126.92 E13.12809
G1 X101.439 Y126.911 E13.17405
G1 X100.783 Y126.862 E13.21736
G1 X100.137 Y126.734 E13.26072
G1 X99.512 Y126.53 E13.304
G1 X98.916 Y126.25 E13.34735
G1 X98.358 Y125.901 E13.39069
G1 X97.847 Y125.486 E13.43402
G1 X97.389 Y125.013 E13.47737
G1 X96.993 Y124.488 E13.52067
G1 X96.663 Y123.918 E13.56403
G1 X96.404 Y123.313 E13.60736
G1 X96.221 Y122.681 E13.65068
G1 X96.116 Y122.031 E13.69402
G1 X96.082 Y121.304 E13.74194
G1 X96.08 Y121.158 E13.75155
G1 X96.08 Y102.101 E15.00621
G1 X96.089 Y101.436 E15.04999
G1 X96.138 Y100.779 E15.09337
G1 X96.266 Y100.134 E15.13666
G1 X96.472 Y99.508 E15.18005
G1 X96.751 Y98.913 E15.22331
G1 X97.101 Y98.355 E15.26668
G1 X97.516 Y97.844 E15.31002
G1 X97.99 Y97.387 E15.35337
;MESH:20mmTestCube_repaired.stl
G0 F14400 X120.5 Y102.34
;TYPE:FILL
G1 F420 X120.5 Y120.66 E16.5595
G1 X119 Y120.66 E16.65826
G1 X119 Y102.34 E17.86439
G1 X117.5 Y102.34 E17.96315
G1 X117.5 Y120.66 E19.16928
G1 X116 Y120.66 E19.26803
G1 X116 Y102.34 E20.47417
G1 X114.5 Y102.34 E20.57292
G1 X114.5 Y120.66 E21.77906
G1 X113 Y120.66 E21.87781
G1 X113 Y102.34 E23.08394
G1 X111.5 Y102.34 E23.1827
G1 X111.5 Y120.66 E24.38883
G1 X110 Y120.66 E24.48759
G1 X110 Y102.34 E25.69372
G1 X108.5 Y102.34 E25.79248
G1 X108.5 Y120.66 E26.99861
G1 X107 Y120.66 E27.09736
G1 X107 Y102.34 E28.3035
G1 X105.5 Y102.34 E28.40225
G1 X105.5 Y120.66 E29.60839
G1 X104 Y120.66 E29.70714
G1 X104 Y102.34 E30.91327
G1 X102.5 Y102.34 E31.01203
G1 X102.5 Y120.66 E32.21816
;MESH:NONMESH
G0 F600 X102.5 Y120.66 Z1
G0 F14400 X102.339 Y120.5
;TIME_ELAPSED:70.881620
;LAYER:1
;TYPE:FILL
;MESH:20mmTestCube_repaired.stl
G1 F420 X120.659 Y120.5 E33.42429
G1 X120.659 Y119 E33.52305
G1 X102.339 Y119 E34.72918
G1 X102.34 Y117.5 E34.82794
G1 X120.66 Y117.5 E36.03407
G1 X120.66 Y116 E36.13283
G1 X102.34 Y116 E37.33896
G1 X102.34 Y114.5 E37.43771
G1 X120.66 Y114.5 E38.64385
G1 X120.66 Y113 E38.7426
G1 X102.34 Y113 E39.94874
G1 X102.34 Y111.5 E40.04749
G1 X120.66 Y111.5 E41.25362
G1 X120.66 Y110 E41.35238
G1 X102.34 Y110 E42.55851
G1 X102.34 Y108.5 E42.65727
G1 X120.66 Y108.5 E43.8634
G1 X120.66 Y107 E43.96216
G1 X102.34 Y107 E45.16829
G1 X102.34 Y105.5 E45.26704
G1 X120.66 Y105.5 E46.47318
G1 X120.66 Y104 E46.57193
G1 X102.34 Y104 E47.77807
G1 X102.34 Y102.5 E47.87682
G1 X120.66 Y102.5 E49.08295
;MESH:NONMESH
G0 F600 X120.66 Y102.5 Z1.5
G0 F14400 X120.5 Y102.34
;TIME_ELAPSED:107.587798
;LAYER:2
;TYPE:FILL
;MESH:20mmTestCube_repaired.stl
G1 F420 X120.5 Y120.66 E50.28909
G1 X119 Y120.66 E50.38784
G1 X119 Y102.34 E51.59398
G1 X117.5 Y102.34 E51.69273
G1 X117.5 Y120.66 E52.89886
G1 X116 Y120.66 E52.99762
G1 X116 Y102.34 E54.20375
G1 X114.5 Y102.34 E54.30251
G1 X114.5 Y120.66 E55.50864
G1 X113 Y120.66 E55.6074
G1 X113 Y102.34 E56.81353
G1 X111.5 Y102.34 E56.91228
G1 X111.5 Y120.66 E58.11842
G1 X110 Y120.66 E58.21717
G1 X110 Y102.34 E59.42331
G1 X108.5 Y102.34 E59.52206
G1 X108.5 Y120.66 E60.72819
G1 X107 Y120.66 E60.82695
G1 X107 Y102.34 E62.03308
G1 X105.5 Y102.34 E62.13184
G1 X105.5 Y120.66 E63.33797
G1 X104 Y120.66 E63.43673
G1 X104 Y102.34 E64.64286
G1 X102.5 Y102.34 E64.74161
G1 X102.5 Y120.66 E65.94775
;MESH:NONMESH
G0 F600 X102.5 Y120.66 Z2
G0 F14400 X102.339 Y120.5
;TIME_ELAPSED:144.294002
;LAYER:3
;TYPE:FILL
;MESH:20mmTestCube_repaired.stl
G1 F420 X120.659 Y120.5 E67.15388
G1 X120.659 Y119 E67.25264
G1 X102.339 Y119 E68.45877
G1 X102.34 Y117.5 E68.55752
G1 X120.66 Y117.5 E69.76366
G1 X120.66 Y116 E69.86241
G1 X102.34 Y116 E71.06854
G1 X102.34 Y114.5 E71.1673
G1 X120.66 Y114.5 E72.37343
G1 X120.66 Y113 E72.47219
G1 X102.34 Y113 E73.67832
G1 X102.34 Y111.5 E73.77708
G1 X120.66 Y111.5 E74.98321
G1 X120.66 Y110 E75.08196
G1 X102.34 Y110 E76.2881
G1 X102.34 Y108.5 E76.38685
G1 X120.66 Y108.5 E77.59299
G1 X120.66 Y107 E77.69174
G1 X102.34 Y107 E78.89787
G1 X102.34 Y105.5 E78.99663
G1 X120.66 Y105.5 E80.20276
G1 X120.66 Y104 E80.30152
G1 X102.34 Y104 E81.50765
G1 X102.34 Y102.5 E81.60641
G1 X120.66 Y102.5 E82.81254
;MESH:NONMESH
G0 F600 X120.66 Y102.5 Z2.5
G0 F14400 X120.5 Y102.34
;TIME_ELAPSED:181.000179
;LAYER:4
;TYPE:FILL
;MESH:20mmTestCube_repaired.stl
G1 F420 X120.5 Y120.66 E84.01867
G1 X119 Y120.66 E84.11743
G1 X119 Y102.34 E85.32356
G1 X117.5 Y102.34 E85.42232
G1 X117.5 Y120.66 E86.62845
G1 X116 Y120.66 E86.7272
G1 X116 Y102.34 E87.93334
G1 X114.5 Y102.34 E88.03209
G1 X114.5 Y120.66 E89.23823
G1 X113 Y120.66 E89.33698
G1 X113 Y102.34 E90.54311
G1 X111.5 Y102.34 E90.64187
G1 X111.5 Y120.66 E91.848
G1 X110 Y120.66 E91.94676
G1 X110 Y102.34 E93.15289
G1 X108.5 Y102.34 E93.25165
G1 X108.5 Y120.66 E94.45778
G1 X107 Y120.66 E94.55653
G1 X107 Y102.34 E95.76267
G1 X105.5 Y102.34 E95.86142
G1 X105.5 Y120.66 E97.06756
G1 X104 Y120.66 E97.16631
G1 X104 Y102.34 E98.37244
G1 X102.5 Y102.34 E98.4712
G1 X102.5 Y120.66 E99.67733
;MESH:NONMESH
G0 F600 X102.5 Y120.66 Z3
G0 F14400 X102.339 Y120.5
;TIME_ELAPSED:217.706383
;LAYER:5
;TYPE:FILL
;MESH:20mmTestCube_repaired.stl
G1 F420 X120.659 Y120.5 E100.88346
G1 X120.659 Y119 E100.98222
G1 X102.339 Y119 E102.18835
G1 X102.34 Y117.5 E102.28711
G1 X120.66 Y117.5 E103.49324
G1 X120.66 Y116 E103.592
G1 X102.34 Y116 E104.79813
G1 X102.34 Y114.5 E104.89689
G1 X120.66 Y114.5 E106.10302
G1 X120.66 Y113 E106.20177
G1 X102.34 Y113 E107.40791
G1 X102.34 Y111.5 E107.50666
G1 X120.66 Y111.5 E108.71279
G1 X120.66 Y110 E108.81155
G1 X102.34 Y110 E110.01768
G1 X102.34 Y108.5 E110.11644
G1 X120.66 Y108.5 E111.32257
G1 X120.66 Y107 E111.42133
G1 X102.34 Y107 E112.62746
G1 X102.34 Y105.5 E112.72622
G1 X120.66 Y105.5 E113.93235
G1 X120.66 Y104 E114.0311
G1 X102.34 Y104 E115.23724
G1 X102.34 Y102.5 E115.33599
G1 X120.66 Y102.5 E116.54212
;MESH:NONMESH
G0 F600 X120.66 Y102.5 Z3.5
G0 F14400 X120.5 Y102.34
;TIME_ELAPSED:254.412560
;LAYER:6
;TYPE:FILL
;MESH:20mmTestCube_repaired.stl
G1 F420 X120.5 Y120.66 E117.74826
G1 X119 Y120.66 E117.84701
G1 X119 Y102.34 E119.05315
G1 X117.5 Y102.34 E119.1519
G1 X117.5 Y120.66 E120.35803
G1 X116 Y120.66 E120.45679
G1 X116 Y102.34 E121.66292
G1 X114.5 Y102.34 E121.76168
G1 X114.5 Y120.66 E122.96781
G1 X113 Y120.66 E123.06657
G1 X113 Y102.34 E124.2727
G1 X111.5 Y102.34 E124.37145
G1 X111.5 Y120.66 E125.57759
G1 X110 Y120.66 E125.67634
G1 X110 Y102.34 E126.88248
G1 X108.5 Y102.34 E126.98123
G1 X108.5 Y120.66 E128.18736
G1 X107 Y120.66 E128.28612
G1 X107 Y102.34 E129.49225
G1 X105.5 Y102.34 E129.59101
G1 X105.5 Y120.66 E130.79714
G1 X104 Y120.66 E130.8959
G1 X104 Y102.34 E132.10203
G1 X102.5 Y102.34 E132.20078
G1 X102.5 Y120.66 E133.40692
;MESH:NONMESH
G0 F600 X102.5 Y120.66 Z4
G0 F14400 X102.339 Y120.5
;TIME_ELAPSED:291.118764
;LAYER:7
;TYPE:FILL
;MESH:20mmTestCube_repaired.stl
G1 F420 X120.659 Y120.5 E134.61305
G1 X120.659 Y119 E134.71181
G1 X102.339 Y119 E135.91794
G1 X102.34 Y117.5 E136.01669
G1 X120.66 Y117.5 E137.22283
G1 X120.66 Y116 E137.32158
G1 X102.34 Y116 E138.52771
G1 X102.34 Y114.5 E138.62647
G1 X120.66 Y114.5 E139.8326
G1 X120.66 Y113 E139.93136
G1 X102.34 Y113 E141.13749
G1 X102.34 Y111.5 E141.23625
G1 X120.66 Y111.5 E142.44238
G1 X120.66 Y110 E142.54114
G1 X102.34 Y110 E143.74727
G1 X102.34 Y108.5 E143.84602
G1 X120.66 Y108.5 E145.05216
G1 X120.66 Y107 E145.15091
G1 X102.34 Y107 E146.35704
G1 X102.34 Y105.5 E146.4558
G1 X120.66 Y105.5 E147.66193
G1 X120.66 Y104 E147.76069
G1 X102.34 Y104 E148.96682
G1 X102.34 Y102.5 E149.06558
G1 X120.66 Y102.5 E150.27171
;MESH:NONMESH
G0 F600 X120.66 Y102.5 Z4.5
G0 F14400 X120.5 Y102.34
;TIME_ELAPSED:327.824941
;LAYER:8
;TYPE:FILL
;MESH:20mmTestCube_repaired.stl
G1 F420 X120.5 Y120.66 E151.47784
G1 X119 Y120.66 E151.5766
G1 X119 Y102.34 E152.78273
G1 X117.5 Y102.34 E152.88149
G1 X117.5 Y120.66 E154.08762
G1 X116 Y120.66 E154.18637
G1 X116 Y102.34 E155.39251
G1 X114.5 Y102.34 E155.49126
G1 X114.5 Y120.66 E156.6974
G1 X113 Y120.66 E156.79615
G1 X113 Y102.34 E158.00228
G1 X111.5 Y102.34 E158.10104
G1 X111.5 Y120.66 E159.30717
G1 X110 Y120.66 E159.40593
G1 X110 Y102.34 E160.61206
G1 X108.5 Y102.34 E160.71082
G1 X108.5 Y120.66 E161.91695
G1 X107 Y120.66 E162.0157
G1 X107 Y102.34 E163.22184
G1 X105.5 Y102.34 E163.32059
G1 X105.5 Y120.66 E164.52673
G1 X104 Y120.66 E164.62548
G1 X104 Y102.34 E165.83161
G1 X102.5 Y102.34 E165.93037
G1 X102.5 Y120.66 E167.1365
;MESH:NONMESH
G0 F600 X102.5 Y120.66 Z5
G0 F14400 X102.339 Y120.5
;TIME_ELAPSED:364.531145
;LAYER:9
;TYPE:FILL
;MESH:20mmTestCube_repaired.stl
G1 F420 X120.659 Y120.5 E168.34264
G1 X120.659 Y119 E168.44139
G1 X102.339 Y119 E169.64752
G1 X102.34 Y117.5 E169.74628
G1 X120.66 Y117.5 E170.95241
G1 X120.66 Y116 E171.05117
G1 X102.34 Y116 E172.2573
G1 X102.34 Y114.5 E172.35606
G1 X120.66 Y114.5 E173.56219
G1 X120.66 Y113 E173.66094
G1 X102.34 Y113 E174.86708
G1 X102.34 Y111.5 E174.96583
G1 X120.66 Y111.5 E176.17196
G1 X120.66 Y110 E176.27072
G1 X102.34 Y110 E177.47685
G1 X102.34 Y108.5 E177.57561
G1 X120.66 Y108.5 E178.78174
G1 X120.66 Y107 E178.8805
G1 X102.34 Y107 E180.08663
G1 X102.34 Y105.5 E180.18539
G1 X120.66 Y105.5 E181.39152
G1 X120.66 Y104 E181.49027
G1 X102.34 Y104 E182.69641
G1 X102.34 Y102.5 E182.79516
G1 X120.66 Y102.5 E184.00129
;MESH:NONMESH
G0 F600 X120.66 Y102.5 Z5.5
G0 F14400 X120.5 Y102.34
;TIME_ELAPSED:401.237322
;LAYER:10
;TYPE:FILL
;MESH:20mmTestCube_repaired.stl
G1 F420 X120.5 Y120.66 E185.20743
G1 X119 Y120.66 E185.30618
G1 X119 Y102.34 E186.51232
G1 X117.5 Y102.34 E186.61107
G1 X117.5 Y120.66 E187.8172
G1 X116 Y120.66 E187.91596
G1 X116 Y102.34 E189.12209
G1 X114.5 Y102.34 E189.22085
G1 X114.5 Y120.66 E190.42698
G1 X113 Y120.66 E190.52574
G1 X113 Y102.34 E191.73187
G1 X111.5 Y102.34 E191.83062
G1 X111.5 Y120.66 E193.03676
G1 X110 Y120.66 E193.13551
G1 X110 Y102.34 E194.34165
G1 X108.5 Y102.34 E194.4404
G1 X108.5 Y120.66 E195.64653
G1 X107 Y120.66 E195.74529
G1 X107 Y102.34 E196.95142
G1 X105.5 Y102.34 E197.05018
G1 X105.5 Y120.66 E198.25631
G1 X104 Y120.66 E198.35507
G1 X104 Y102.34 E199.5612
G1 X102.5 Y102.34 E199.65995
G1 X102.5 Y120.66 E200.86609
;MESH:NONMESH
G0 F600 X102.5 Y120.66 Z6
G0 F14400 X102.339 Y120.5
;TIME_ELAPSED:437.943526
;LAYER:11
;TYPE:FILL
;MESH:20mmTestCube_repaired.stl
G1 F420 X120.659 Y120.5 E202.07222
G1 X120.659 Y119 E202.17098
G1 X102.339 Y119 E203.37711
G1 X102.34 Y117.5 E203.47586
G1 X120.66 Y117.5 E204.682
G1 X120.66 Y116 E204.78075
G1 X102.34 Y116 E205.98689
G1 X102.34 Y114.5 E206.08564
G1 X120.66 Y114.5 E207.29177
G1 X120.66 Y113 E207.39053
G1 X102.34 Y113 E208.59666
G1 X102.34 Y111.5 E208.69542
G1 X120.66 Y111.5 E209.90155
G1 X120.66 Y110 E210.00031
G1 X102.34 Y110 E211.20644
G1 X102.34 Y108.5 E211.30519
G1 X120.66 Y108.5 E212.51133
G1 X120.66 Y107 E212.61008
G1 X102.34 Y107 E213.81622
G1 X102.34 Y105.5 E213.91497
G1 X120.66 Y105.5 E215.1211
G1 X120.66 Y104 E215.21986
G1 X102.34 Y104 E216.42599
G1 X102.34 Y102.5 E216.52475
G1 X120.66 Y102.5 E217.73088
;MESH:NONMESH
G0 F600 X120.66 Y102.5 Z6.5
G0 F14400 X120.5 Y102.34
;TIME_ELAPSED:474.649703
;LAYER:12
;TYPE:FILL
;MESH:20mmTestCube_repaired.stl
G1 F420 X120.5 Y120.66 E218.93701
G1 X119 Y120.66 E219.03577
G1 X119 Y102.34 E220.2419
G1 X117.5 Y102.34 E220.34066
G1 X117.5 Y120.66 E221.54679
G1 X116 Y120.66 E221.64554
G1 X116 Y102.34 E222.85168
G1 X114.5 Y102.34 E222.95043
G1 X114.5 Y120.66 E224.15657
G1 X113 Y120.66 E224.25532
G1 X113 Y102.34 E225.46145
G1 X111.5 Y102.34 E225.56021
G1 X111.5 Y120.66 E226.76634
G1 X110 Y120.66 E226.8651
G1 X110 Y102.34 E228.07123
G1 X108.5 Y102.34 E228.16999
G1 X108.5 Y120.66 E229.37612
G1 X107 Y120.66 E229.47487
G1 X107 Y102.34 E230.68101
G1 X105.5 Y102.34 E230.77976
G1 X105.5 Y120.66 E231.9859
G1 X104 Y120.66 E232.08465
