; generated by emiliano
; external perimeters extrusion width = 0.94mm
; perimeters extrusion width = 0.94mm
; infill extrusion width = 0.94mm
; solid infill extrusion width = 0.94mm
M201 X9000 Y9000 Z500 E10000 ; sets maximum accelerations, mm/sec^2
M203 X500 Y500 Z12 E120 ; sets maximum feedrates, mm/sec
M204 P1500 R1500 T1500 ; sets acceleration (P, T) and retract acceleration (R), mm/sec^2
M205 X10.00 Y10.00 Z0.20 E2.50 ; sets the jerk limits, mm/sec
M205 S0 T0 ; sets the minimum extruding and travel feed rate, mm/sec
M107
M190 S25 ; set bed temperature and wait for it to be reached
M104 S25 ; set temperature
;TYPE:Custom
G28 ; home all axes
G1 Z5 F5000 ; lift nozzle
M109 S25 ; set temperature and wait for it to be reached
G21 ; set units to millimeters
G90 ; use absolute coordinates
M82 ; use absolute distances for extrusion
; Filament gcode
G92 E0
;LAYER_CHANGE
;Z:0.5
;HEIGHT:0.5
;END HEADER
G90;SKIRT Begin
G0 Z0.5;INIT
G0 X90 Y90 F3600;INIT
G91
G1 X40 F420
G1 Y40 F420
G1 X-40 F420
G1 Y-40 F420
G90
G0 Z0.5;INIT
G0 X100 Y100 E3;INIT
G91
G1 Y20 F420
G1 X1.42 F420
G1 Y-20 F420
G1 X1.42 F420
G1 Y20 F420
G1 X1.42 F420
G1 Y-20 F420
G1 X1.42 F420
G1 Y20 F420
G1 X1.42 F420
G1 Y-20 F420
G1 X1.42 F420
G1 Y20 F420
G1 X1.42 F420
G1 Y-20 F420
G1 X1.42 F420
G1 Y20 F420
G1 X1.42 F420
G1 Y-20 F420
G1 X1.42 F420
G1 Y20 F420
G1 X1.42 F420
G1 Y-20 F420
G1 X1.42 F420
G1 Y20 F420
G1 X1.42 F420
G1 Y-20 F420
G1 X1.42 F420
G1 Y20 F420
G0 Z0.7 F5000
G90
G0 X100 Y100 F3600
G91
G0 Z-0.2 F5000
G1 X20 F420
G1 Y1.42 F420
G1 X-20 F420
G1 Y1.42 F420
G1 X20 F420
G1 Y1.42 F420
G1 X-20 F420
G1 Y1.42 F420
G1 X20 F420
G1 Y1.42 F420
G1 X-20 F420
G1 Y1.42 F420
G1 X20 F420
G1 Y1.42 F420
G1 X-20 F420
G1 Y1.42 F420
G1 X20 F420
G1 Y1.42 F420
G1 X-20 F420
G1 Y1.42 F420
G1 X20 F420
G1 Y1.42 F420
G1 X-20 F420
G1 Y1.42 F420
G1 X20 F420
G1 Y1.42 F420
G1 X-20 F420
G1 Y1.42 F420
G1 X20 F420
G0 Z0.7 F5000
G90
G0 X100 Y100 F3600
G91
G0 Z-0.2 F5000
G1 Y20 F420
G1 X1.42 F420
G1 Y-20 F420
G1 X1.42 F420
G1 Y20 F420
G1 X1.42 F420
G1 Y-20 F420
G1 X1.42 F420
G1 Y20 F420
G1 X1.42 F420
G1 Y-20 F420
G1 X1.42 F420
G1 Y20 F420
G1 X1.42 F420
G1 Y-20 F420
G1 X1.42 F420
G1 Y20 F420
G1 X1.42 F420
G1 Y-20 F420
G1 X1.42 F420
G1 Y20 F420
G1 X1.42 F420
G1 Y-20 F420
G1 X1.42 F420
G1 Y20 F420
G1 X1.42 F420
G1 Y-20 F420
G1 X1.42 F420
G1 Y20 F420
G0 Z0.7 F5000
G90
G0 X100 Y100 F3600
G91
G0 Z-0.2 F5000
G1 X20 F420
G1 Y1.92 F420
G1 X-20 F420
G1 Y1.42 F420
G1 X20 F420
G1 Y1.42 F420
G1 X-20 F420
G1 Y1.42 F420
G1 X20 F420
G1 Y1.42 F420
G1 X-20 F420
G1 Y1.42 F420
G1 X20 F420
G1 Y1.42 F420
G1 X-20 F420
G1 Y1.42 F420
G1 X20 F420
G1 Y1.42 F420
G1 X-20 F420
G1 Y1.42 F420
G1 X20 F420
G1 Y1.42 F420
G1 X-20 F420
G1 Y1.42 F420
G1 X20 F420
G1 Y1.42 F420
G1 Y0.9199999999999999 F420
G1 X-20 F420
G0 Z0.7 F5000
G90
G0 X100 Y100 F3600
G91
G0 Z-0.2 F5000
G1 Y20 F420
G1 X1.42 F420
G1 Y-20 F420
G1 X1.42 F420
G1 Y20 F420
G1 X1.42 F420
G1 Y-20 F420
G1 X1.42 F420
G1 Y20 F420
G1 X1.42 F420
G1 Y-20 F420
G1 X1.42 F420
G1 Y20 F420
G1 X1.42 F420
G1 Y-20 F420
G1 X1.42 F420
G1 Y20 F420
G1 X1.42 F420
G1 Y-20 F420
G1 X1.42 F420
G1 Y20 F420
G1 X1.42 F420
G1 Y-20 F420
G1 X1.42 F420
G1 Y20 F420
G1 X1.42 F420
G1 Y-20 F420
G1 X1.42 F420
G1 Y20 F420
G0 Z0.7 F5000
G90
G0 X100 Y100 F3600
G91
G0 Z-0.2 F5000
G1 X20 F420
G1 Y1.42 F420
G1 X-20 F420
G1 Y1.42 F420
G1 X20 F420
G1 Y1.42 F420
G1 X-20 F420
G1 Y1.42 F420
G1 X20 F420
G1 Y1.42 F420
G1 X-20 F420
G1 Y1.42 F420
G1 X20 F420
G1 Y1.42 F420
G1 X-20 F420
G1 Y1.42 F420
G1 X20 F420
G1 Y1.42 F420
G1 X-20 F420
G1 Y1.42 F420
G1 X20 F420
G1 Y1.42 F420
G1 X-20 F420
G1 Y1.42 F420
G1 X20 F420
G1 Y1.42 F420
G1 X-20 F420
G1 Y1.42 F420
G1 X20 F420
G0 Z0.7 F5000
G90
G0 X100 Y100 F3600
G91
G0 Z-0.2 F5000
G1 Y20 F420
G1 X1.42 F420
G1 Y-20 F420
G1 X1.42 F420
G1 Y20 F420
G1 X1.42 F420
G1 Y-20 F420
G1 X1.42 F420
G1 Y20 F420
G1 X1.42 F420
G1 Y-20 F420
G1 X1.42 F420
G1 Y20 F420
G1 X1.42 F420
G1 Y-20 F420
G1 X1.42 F420
G1 Y20 F420
G1 X1.42 F420
G1 Y-20 F420
G1 X1.42 F420
G1 Y20 F420
G1 X1.42 F420
G1 Y-20 F420
G1 X1.42 F420
G1 Y20 F420
G1 X1.42 F420
G1 Y-20 F420
G1 X1.42 F420
G1 Y20 F420
G0 Z0.7 F5000
G90
G0 X100 Y100 F3600
G91
G0 Z-0.2 F5000
G1 X20 F420
G1 Y1.92 F420
G1 X-20 F420
G1 Y1.42 F420
G1 X20 F420
G1 Y1.42 F420
G1 X-20 F420
G1 Y1.42 F420
G1 X20 F420
G1 Y1.42 F420
G1 X-20 F420
G1 Y1.42 F420
G1 X20 F420
G1 Y1.42 F420
G1 X-20 F420
G1 Y1.42 F420
G1 X20 F420
G1 Y1.42 F420
G1 X-20 F420
G1 Y1.42 F420
G1 X20 F420
G1 Y1.42 F420
G1 X-20 F420
G1 Y1.42 F420
G1 X20 F420
G1 Y1.42 F420
G1 Y0.9199999999999999 F420
G1 X-20 F420
G0 Z0.7 F5000
G90
G0 X100 Y100 F3600
G91
G0 Z-0.2 F5000
G1 Y20 F420
G1 X1.42 F420
G1 Y-20 F420
G1 X1.42 F420
G1 Y20 F420
G1 X1.42 F420
G1 Y-20 F420
G1 X1.42 F420
G1 Y20 F420
G1 X1.42 F420
G1 Y-20 F420
G1 X1.42 F420
G1 Y20 F420
G1 X1.42 F420
G1 Y-20 F420
G1 X1.42 F420
G1 Y20 F420
G1 X1.42 F420
G1 Y-20 F420
G1 X1.42 F420
G1 Y20 F420
G1 X1.42 F420
G1 Y-20 F420
G1 X1.42 F420
G1 Y20 F420
G1 X1.42 F420
G1 Y-20 F420
G1 X1.42 F420
G1 Y20 F420
G0 Z0.7 F5000
G90
G0 X100 Y100 F3600
G91
G0 Z-0.2 F5000
G1 X20 F420
G1 Y1.42 F420
G1 X-20 F420
G1 Y1.42 F420
G1 X20 F420
G1 Y1.42 F420
G1 X-20 F420
G1 Y1.42 F420
G1 X20 F420
G1 Y1.42 F420
G1 X-20 F420
G1 Y1.42 F420
G1 X20 F420
G1 Y1.42 F420
G1 X-20 F420
G1 Y1.42 F420
G1 X20 F420
G1 Y1.42 F420
G1 X-20 F420
G1 Y1.42 F420
G1 X20 F420
G1 Y1.42 F420
G1 X-20 F420
G1 Y1.42 F420
G1 X20 F420
G1 Y1.42 F420
G1 X-20 F420
G1 Y1.42 F420
G1 X20 F420
G0 Z0.7 F5000
G90
G0 X100 Y100 F3600
G91
G0 Z-0.2 F5000
G1 Y20 F420
G1 X1.42 F420
G1 Y-20 F420
G1 X1.42 F420
G1 Y20 F420
G1 X1.42 F420
G1 Y-20 F420
G1 X1.42 F420
G1 Y20 F420
G1 X1.42 F420
G1 Y-20 F420
G1 X1.42 F420
G1 Y20 F420
G1 X1.42 F420
G1 Y-20 F420
G1 X1.42 F420
G1 Y20 F420
G1 X1.42 F420
G1 Y-20 F420
G1 X1.42 F420
G1 Y20 F420
G1 X1.42 F420
G1 Y-20 F420
G1 X1.42 F420
G1 Y20 F420
G1 X1.42 F420
G1 Y-20 F420
G1 X1.42 F420
G1 Y20 F420
G0 Z0.7 F5000
G90
G0 X100 Y100 F3600
G91
G0 Z-0.2 F5000
G1 X20 F420
G1 Y1.92 F420
G1 X-20 F420
G1 Y1.42 F420
G1 X20 F420
G1 Y1.42 F420
G1 X-20 F420
G1 Y1.42 F420
G1 X20 F420
G1 Y1.42 F420
G1 X-20 F420
G1 Y1.42 F420
G1 X20 F420
G1 Y1.42 F420
G1 X-20 F420
G1 Y1.42 F420
G1 X20 F420
G1 Y1.42 F420
G1 X-20 F420
G1 Y1.42 F420
G1 X20 F420
G1 Y1.42 F420
G1 X-20 F420
G1 Y1.42 F420
G1 X20 F420
G1 Y1.42 F420
G1 Y0.9199999999999999 F420
G1 X-20 F420
G0 Z0.7 F5000
G90
G0 X100 Y100 F3600
G91
G0 Z-0.2 F5000
G1 Y20 F420
G1 X1.42 F420
G1 Y-20 F420
G1 X1.42 F420
G1 Y20 F420
G1 X1.42 F420
G1 Y-20 F420
G1 X1.42 F420
G1 Y20 F420
G1 X1.42 F420
G1 Y-20 F420
G1 X1.42 F420
G1 Y20 F420
G1 X1.42 F420
G1 Y-20 F420
G1 X1.42 F420
G1 Y20 F420
G1 X1.42 F420
G1 Y-20 F420
G1 X1.42 F420
G1 Y20 F420
G1 X1.42 F420
G1 Y-20 F420
G1 X1.42 F420
G1 Y20 F420
G1 X1.42 F420
G1 Y-20 F420
G1 X1.42 F420
G1 Y20 F420
G0 Z0.7 F5000
G90
G0 X100 Y100 F3600
G91
G0 Z-0.2 F5000
G1 X20 F420
G1 Y1.42 F420
G1 X-20 F420
G1 Y1.42 F420
G1 X20 F420
G1 Y1.42 F420
G1 X-20 F420
G1 Y1.42 F420
G1 X20 F420
G1 Y1.42 F420
G1 X-20 F420
G1 Y1.42 F420
G1 X20 F420
G1 Y1.42 F420
G1 X-20 F420
G1 Y1.42 F420
G1 X20 F420
G1 Y1.42 F420
G1 X-20 F420
G1 Y1.42 F420
G1 X20 F420
G1 Y1.42 F420
G1 X-20 F420
G1 Y1.42 F420
G1 X20 F420
G1 Y1.42 F420
G1 X-20 F420
G1 Y1.42 F420
G1 X20 F420
G0 Z0.7 F5000
G90
G0 X100 Y100 F3600
G91
G0 Z-0.2 F5000
G1 Y20 F420
G1 X1.42 F420
G1 Y-20 F420
G1 X1.42 F420
G1 Y20 F420
G1 X1.42 F420
G1 Y-20 F420
G1 X1.42 F420
G1 Y20 F420
G1 X1.42 F420
G1 Y-20 F420
G1 X1.42 F420
G1 Y20 F420
G1 X1.42 F420
G1 Y-20 F420
G1 X1.42 F420
G1 Y20 F420
G1 X1.42 F420
G1 Y-20 F420
G1 X1.42 F420
G1 Y20 F420
G1 X1.42 F420
G1 Y-20 F420
G1 X1.42 F420
G1 Y20 F420
G1 X1.42 F420
G1 Y-20 F420
G1 X1.42 F420
G1 Y20 F420
G0 Z0.7 F5000
G90
G0 X100 Y100 F3600
G91
G0 Z-0.2 F5000
G1 X20 F420
G1 Y1.92 F420
G1 X-20 F420
G1 Y1.42 F420
G1 X20 F420
G1 Y1.42 F420
G1 X-20 F420
G1 Y1.42 F420
G1 X20 F420
G1 Y1.42 F420
G1 X-20 F420
G1 Y1.42 F420
G1 X20 F420
G1 Y1.42 F420
G1 X-20 F420
G1 Y1.42 F420
G1 X20 F420
G1 Y1.42 F420
G1 X-20 F420
G1 Y1.42 F420
G1 X20 F420
G1 Y1.42 F420
G1 X-20 F420
G1 Y1.42 F420
G1 X20 F420
G1 Y1.42 F420
G1 Y0.9199999999999999 F420
G1 X-20 F420
G0 Z0.7 F5000
G90
G0 X100 Y100 F3600
G91
G0 Z-0.2 F5000
G1 Y20 F420
G1 X1.42 F420
G1 Y-20 F420
G1 X1.42 F420
G1 Y20 F420
G1 X1.42 F420
G1 Y-20 F420
G1 X1.42 F420
G1 Y20 F420
G1 X1.42 F420
G1 Y-20 F420
G1 X1.42 F420
G1 Y20 F420
G1 X1.42 F420
G1 Y-20 F420
G1 X1.42 F420
G1 Y20 F420
G1 X1.42 F420
G1 Y-20 F420
G1 X1.42 F420
G1 Y20 F420
G1 X1.42 F420
G1 Y-20 F420
G1 X1.42 F420
G1 Y20 F420
G1 X1.42 F420
G1 Y-20 F420
G1 X1.42 F420
G1 Y20 F420
G0 Z0.7 F5000
G90
G0 X100 Y100 F3600
G91
G0 Z-0.2 F5000
G1 X20 F420
G1 Y1.42 F420
G1 X-20 F420
G1 Y1.42 F420
G1 X20 F420
G1 Y1.42 F420
G1 X-20 F420
G1 Y1.42 F420
G1 X20 F420
G1 Y1.42 F420
G1 X-20 F420
G1 Y1.42 F420
G1 X20 F420
G1 Y1.42 F420
G1 X-20 F420
G1 Y1.42 F420
G1 X20 F420
G1 Y1.42 F420
G1 X-20 F420
G1 Y1.42 F420
G1 X20 F420
G1 Y1.42 F420
G1 X-20 F420
G1 Y1.42 F420
G1 X20 F420
G1 Y1.42 F420
G1 X-20 F420
G1 Y1.42 F420
G1 X20 F420
G0 Z0.7 F5000
G90
G0 X100 Y100 F3600
G91
G0 Z-0.2 F5000
G1 Y20 F420
G1 X1.42 F420
G1 Y-20 F420
G1 X1.42 F420
G1 Y20 F420
G1 X1.42 F420
G1 Y-20 F420
G1 X1.42 F420
G1 Y20 F420
G1 X1.42 F420
G1 Y-20 F420
G1 X1.42 F420
G1 Y20 F420
G1 X1.42 F420
G1 Y-20 F420
G1 X1.42 F420
G1 Y20 F420
G1 X1.42 F420
G1 Y-20 F420
G1 X1.42 F420
G1 Y20 F420
G1 X1.42 F420
G1 Y-20 F420
G1 X1.42 F420
G1 Y20 F420
G1 X1.42 F420
G1 Y-20 F420
G1 X1.42 F420
G1 Y20 F420
G0 Z0.7 F5000
G90
G0 X100 Y100 F3600
G91
G0 Z-0.2 F5000
G1 X20 F420
G1 Y1.92 F420
G1 X-20 F420
G1 Y1.42 F420
G1 X20 F420
G1 Y1.42 F420
G1 X-20 F420
G1 Y1.42 F420
G1 X20 F420
G1 Y1.42 F420
G1 X-20 F420
G1 Y1.42 F420
G1 X20 F420
G1 Y1.42 F420
G1 X-20 F420
G1 Y1.42 F420
G1 X20 F420
G1 Y1.42 F420
G1 X-20 F420
G1 Y1.42 F420
G1 X20 F420
G1 Y1.42 F420
G1 X-20 F420
G1 Y1.42 F420
G1 X20 F420
G1 Y1.42 F420
G1 Y0.9199999999999999 F420
G1 X-20 F420
G0 Z0.7 F5000
G90
G0 X100 Y100 F3600
G91
G0 Z-0.2 F5000
G90
G0 X50 Y50 F3600
M104 S0
M84