;FLAVOR:UltiGCode
;TIME:658
;MATERIAL:2632
;MATERIAL2:0
;NOZZLE_DIAMETER:0.8
;MINX:95.25
;MINY:95.254
;MINZ:0.5
;MAXX:127.747
;MAXY:127.75
;MAXZ:20
;Generated with Cura_SteamEngine 4.8.0
M82 ;absolute extrusion mode
M302 P1 ; Allow cold extrusion
G0 F3000 Y50 ;avoid prime blob
G92 E0
G92 E0
;LAYER_COUNT:40
;LAYER:0
M107
G0 F7200 X99.922 Y100.097 Z0.5
;TYPE:SKIRT
G1 F600 X100.29 Y99.737 E0.21622
G1 X100.79 Y99.279 E0.501
G1 X101.195 Y98.937 E0.72364
G1 X101.721 Y98.523 E1.00478
G1 X102.152 Y98.21 E1.2285
G1 X102.702 Y97.838 E1.50737
G1 X103.164 Y97.552 E1.73558
G1 X103.744 Y97.221 E2.01606
G1 X104.217 Y96.975 E2.23998
G1 X104.844 Y96.676 E2.53173
G1 X105.337 Y96.465 E2.75696
G1 X105.965 Y96.223 E3.03963
G1 X106.62 Y96.001 E3.3301
G1 X107.115 Y95.854 E3.54697
G1 X107.624 Y95.72 E3.76804
G1 X108.281 Y95.573 E4.0508
G1 X108.798 Y95.478 E4.27157
G1 X109.479 Y95.377 E4.56072
G1 X109.99 Y95.321 E4.77663
G1 X110.647 Y95.272 E5.05333
G1 X111.187 Y95.254 E5.28026
G1 X111.882 Y95.255 E5.57216
G1 X112.429 Y95.277 E5.80209
G1 X113.07 Y95.325 E6.07206
G1 X113.627 Y95.39 E6.30759
G1 X114.29 Y95.491 E6.58926
G1 X114.819 Y95.593 E6.81553
G1 X115.478 Y95.743 E7.09939
G1 X115.965 Y95.875 E7.31131
G1 X116.636 Y96.082 E7.60624
G1 X117.13 Y96.257 E7.82635
G1 X117.782 Y96.513 E8.12054
G1 X118.369 Y96.773 E8.39019
G1 X118.844 Y97.004 E8.61203
G1 X119.336 Y97.265 E8.84594
G1 X119.885 Y97.581 E9.11199
G1 X120.337 Y97.864 E9.33597
G1 X120.939 Y98.272 E9.64141
G1 X121.471 Y98.668 E9.91995
G1 X121.883 Y99 E10.14218
G1 X122.379 Y99.429 E10.41761
G1 X122.791 Y99.813 E10.65416
G1 X123.146 Y100.169 E10.86532
G1 X123.62 Y100.676 E11.15682
G1 X124.064 Y101.193 E11.44305
G1 X124.402 Y101.62 E11.67177
G1 X124.776 Y102.13 E11.9374
G1 X125.09 Y102.591 E12.17166
G1 X125.371 Y103.036 E12.39271
G1 X125.715 Y103.627 E12.67992
G1 X125.962 Y104.093 E12.90143
G1 X126.261 Y104.707 E13.18826
G1 X126.52 Y105.299 E13.45965
G1 X126.71 Y105.781 E13.67726
G1 X126.894 Y106.3 E13.90853
G1 X127.105 Y106.969 E14.20315
G1 X127.279 Y107.622 E14.48698
G1 X127.394 Y108.128 E14.70492
G1 X127.499 Y108.668 E14.93597
G1 X127.599 Y109.296 E15.20305
G1 X127.665 Y109.849 E15.43696
G1 X127.722 Y110.56 E15.73654
G1 X127.747 Y111.224 E16.01562
G1 X127.747 Y111.73 E16.22814
G1 X127.724 Y112.408 E16.51306
G1 X127.686 Y112.935 E16.73498
G1 X127.633 Y113.437 E16.94699
G1 X127.536 Y114.132 E17.24172
G1 X127.443 Y114.643 E17.45986
G1 X127.297 Y115.311 E17.74704
G1 X127.129 Y115.951 E18.02495
G1 X126.959 Y116.511 E18.27075
G1 X126.753 Y117.104 E18.53441
G1 X126.548 Y117.633 E18.77269
G1 X126.283 Y118.249 E19.05433
G1 X126.055 Y118.727 E19.27676
G1 X125.761 Y119.291 E19.5439
G1 X125.481 Y119.783 E19.78166
G1 X125.202 Y120.234 E20.00439
G1 X124.834 Y120.787 E20.28338
G1 X124.509 Y121.237 E20.51652
G1 X124.093 Y121.771 E20.80082
G1 X123.763 Y122.16 E21.01507
G1 X123.284 Y122.688 E21.31449
G1 X122.84 Y123.14 E21.5806
G1 X122.436 Y123.52 E21.81354
G1 X121.934 Y123.957 E22.09308
G1 X121.52 Y124.293 E22.31702
G1 X121.084 Y124.622 E22.54642
G1 X120.566 Y124.985 E22.81208
G1 X120.134 Y125.266 E23.02853
G1 X119.504 Y125.642 E23.33667
G1 X118.912 Y125.96 E23.61891
G1 X118.423 Y126.201 E23.84788
G1 X117.83 Y126.465 E24.12051
G1 X117.32 Y126.671 E24.35152
G1 X116.821 Y126.853 E24.57461
G1 X116.181 Y127.06 E24.85712
G1 X115.69 Y127.198 E25.07133
G1 X115.011 Y127.364 E25.36491
G1 X114.509 Y127.467 E25.58014
G1 X113.828 Y127.581 E25.87014
G1 X113.15 Y127.665 E26.15708
G1 X112.625 Y127.71 E26.37838
G1 X112.091 Y127.737 E26.60295
G1 X111.413 Y127.75 E26.88776
G1 X110.72 Y127.733 E27.17891
G1 X110.233 Y127.701 E27.38389
G1 X109.684 Y127.648 E27.61554
G1 X108.985 Y127.555 E27.91171
G1 X108.337 Y127.44 E28.18812
G1 X107.846 Y127.334 E28.39909
G1 X107.32 Y127.203 E28.62676
G1 X106.609 Y126.997 E28.93766
G1 X105.985 Y126.786 E29.21432
G1 X105.528 Y126.613 E29.41955
G1 X105.06 Y126.419 E29.63233
G1 X104.375 Y126.105 E29.94882
G1 X103.839 Y125.83 E30.20184
G1 X103.334 Y125.549 E30.44456
G1 X102.889 Y125.279 E30.66318
G1 X102.306 Y124.899 E30.95546
G1 X101.81 Y124.545 E31.21139
G1 X101.411 Y124.24 E31.42233
G1 X100.943 Y123.852 E31.67765
G1 X100.448 Y123.413 E31.95554
G1 X100.08 Y123.061 E32.16942
G1 X99.599 Y122.564 E32.45991
G1 X99.216 Y122.136 E32.70113
G1 X98.79 Y121.625 E32.98055
G1 X98.481 Y121.222 E33.19384
G1 X98.074 Y120.654 E33.48732
G1 X97.69 Y120.064 E33.78298
G1 X97.432 Y119.632 E33.99432
G1 X97.177 Y119.173 E34.21485
G1 X96.86 Y118.551 E34.50806
G1 X96.645 Y118.083 E34.72437
G1 X96.388 Y117.471 E35.00315
G1 X96.207 Y116.988 E35.21979
G1 X95.978 Y116.308 E35.52115
G1 X95.838 Y115.826 E35.73196
G1 X95.672 Y115.173 E36.01494
G1 X95.566 Y114.679 E36.22714
G1 X95.434 Y113.936 E36.54409
G1 X95.346 Y113.263 E36.82915
G1 X95.302 Y112.784 E37.03118
G1 X95.266 Y112.201 E37.27651
G1 X95.25 Y111.568 E37.54245
G1 X95.263 Y110.92 E37.81467
G1 X95.296 Y110.284 E38.08215
G1 X95.342 Y109.764 E38.3014
G1 X95.405 Y109.255 E38.51681
G1 X95.521 Y108.54 E38.82104
G1 X95.67 Y107.826 E39.12738
G1 X95.781 Y107.382 E39.3196
G1 X95.917 Y106.894 E39.53237
G1 X96.129 Y106.227 E39.82632
G1 X96.314 Y105.719 E40.05339
G1 X96.568 Y105.087 E40.33946
G1 X96.779 Y104.619 E40.55507
G1 X97.089 Y103.99 E40.8496
G1 X97.424 Y103.379 E41.14226
G1 X97.66 Y102.985 E41.33515
G1 X97.949 Y102.534 E41.56012
G1 X98.353 Y101.95 E41.85838
G1 X98.764 Y101.408 E42.14406
G1 X99.11 Y100.985 E42.37359
G1 X99.531 Y100.508 E42.6408
G1 X99.922 Y100.097 E42.87905
G0 F7200 X100.51 Y100.698
G1 F600 X100.973 Y100.246 E43.15081
G1 X101.332 Y99.921 E43.3542
G1 X101.737 Y99.579 E43.57684
G1 X102.214 Y99.202 E43.8322
G1 X102.645 Y98.889 E44.05591
G1 X103.144 Y98.553 E44.30858
G1 X103.606 Y98.267 E44.53679
G1 X104.131 Y97.966 E44.79096
G1 X104.604 Y97.72 E45.01488
G1 X105.174 Y97.448 E45.28014
G1 X105.667 Y97.237 E45.50537
G1 X106.237 Y97.017 E45.76198
G1 X106.868 Y96.804 E46.04169
G1 X107.329 Y96.667 E46.24368
G1 X107.838 Y96.533 E46.46475
G1 X108.432 Y96.399 E46.72049
G1 X108.949 Y96.304 E46.94127
G1 X109.571 Y96.212 E47.20535
G1 X110.082 Y96.156 E47.42126
G1 X110.675 Y96.112 E47.671
G1 X111.215 Y96.094 E47.89793
G1 X111.848 Y96.094 E48.16379
G1 X112.395 Y96.116 E48.39371
G1 X112.972 Y96.16 E48.63676
G1 X113.529 Y96.225 E48.87228
G1 X114.131 Y96.316 E49.128
G1 X114.791 Y96.445 E49.41044
G1 X115.258 Y96.554 E49.61185
G1 X115.745 Y96.686 E49.82377
G1 X116.356 Y96.874 E50.09227
G1 X116.85 Y97.049 E50.31238
G1 X117.445 Y97.282 E50.58076
G1 X118.011 Y97.532 E50.84064
G1 X118.45 Y97.746 E51.04576
G1 X118.942 Y98.007 E51.27967
G1 X119.439 Y98.293 E51.52051
G1 X119.891 Y98.576 E51.74449
G1 X120.44 Y98.947 E52.02278
G1 X120.952 Y99.328 E52.29083
G1 X121.335 Y99.636 E52.49725
G1 X121.816 Y100.052 E52.76434
G1 X122.196 Y100.406 E52.98246
G1 X122.551 Y100.762 E53.19362
G1 X122.984 Y101.225 E53.45987
G1 X123.318 Y101.612 E53.67457
G1 X123.726 Y102.118 E53.94757
G1 X124.088 Y102.613 E54.20513
G1 X124.38 Y103.039 E54.42205
G1 X124.661 Y103.484 E54.6431
G1 X124.973 Y104.021 E54.90394
G1 X125.22 Y104.487 E55.12545
G1 X125.493 Y105.045 E55.38636
G1 X125.743 Y105.619 E55.64931
G1 X125.918 Y106.062 E55.84936
G1 X126.102 Y106.581 E56.08064
G1 X126.294 Y107.189 E56.34843
G1 X126.462 Y107.817 E56.62146
G1 X126.569 Y108.288 E56.82432
G1 X126.674 Y108.828 E57.05537
G1 X126.765 Y109.396 E57.29697
G1 X126.831 Y109.949 E57.53088
G1 X126.882 Y110.594 E57.80263
G1 X126.907 Y111.234 E58.07163
G1 X126.893 Y112.203 E58.47865
G1 X126.851 Y112.847 E58.74971
G1 X126.798 Y113.349 E58.96172
G1 X126.709 Y113.981 E59.22978
G1 X126.616 Y114.492 E59.44792
G1 X126.484 Y115.1 E59.70923
G1 X126.322 Y115.718 E59.97756
G1 X126.165 Y116.238 E60.2057
G1 X125.966 Y116.811 E60.46046
G1 X125.776 Y117.303 E60.68197
G1 X125.576 Y117.77 E60.89534
G1 X125.31 Y118.34 E61.15953
G1 X125.025 Y118.886 E61.41821
G1 X124.766 Y119.341 E61.6381
G1 X124.407 Y119.919 E61.92388
G1 X124.153 Y120.295 E62.11445
G1 X123.828 Y120.745 E62.34759
G1 X123.452 Y121.227 E62.60434
G1 X123.031 Y121.721 E62.87695
G1 X122.684 Y122.1 E63.09277
G1 X122.253 Y122.538 E63.35085
G1 X121.883 Y122.888 E63.56477
G1 X121.396 Y123.312 E63.83597
G1 X121.014 Y123.622 E64.04259
G1 X120.578 Y123.951 E64.27199
G1 X120.108 Y124.28 E64.51295
G1 X119.676 Y124.561 E64.7294
G1 X119.104 Y124.903 E65.0093
G1 X118.533 Y125.211 E65.28179
G1 X118.079 Y125.434 E65.49423
G1 X117.504 Y125.69 E65.75858
G1 X117.032 Y125.882 E65.9726
G1 X116.533 Y126.064 E66.19568
G1 X115.954 Y126.252 E66.45136
G1 X115.463 Y126.39 E66.66557
G1 X114.842 Y126.541 E66.93399
G1 X114.34 Y126.644 E67.14922
G1 X113.724 Y126.748 E67.4116
G1 X113.065 Y126.829 E67.69047
G1 X112.583 Y126.871 E67.89367
G1 X112.049 Y126.898 E68.11824
G1 X111.43 Y126.91 E68.37827
G1 X110.764 Y126.894 E68.65807
G1 X110.314 Y126.865 E68.84746
G1 X109.765 Y126.812 E69.07911
G1 X109.129 Y126.728 E69.34855
G1 X108.504 Y126.617 E69.61516
G1 X108.049 Y126.519 E69.81064
G1 X107.523 Y126.388 E70.03831
G1 X106.876 Y126.201 E70.32117
G1 X106.274 Y125.997 E70.58814
G1 X105.85 Y125.837 E70.77847
G1 X105.382 Y125.643 E70.99125
G1 X104.756 Y125.356 E71.28049
G1 X104.236 Y125.09 E71.5258
G1 X103.769 Y124.831 E71.75009
G1 X103.324 Y124.561 E71.9687
G1 X102.791 Y124.213 E72.23605
G1 X102.313 Y123.872 E72.48266
G1 X101.833 Y123.501 E72.73746
G1 X101.37 Y123.112 E72.99144
G1 X101.029 Y122.806 E73.18387
G1 X100.661 Y122.454 E73.39776
G1 X100.225 Y122.004 E73.66092
G1 X99.842 Y121.576 E73.90214
G1 X99.457 Y121.114 E74.15473
G1 X99.148 Y120.711 E74.36801
G1 X98.775 Y120.19 E74.63713
G1 X98.406 Y119.626 E74.92021
G1 X98.166 Y119.224 E75.11685
G1 X97.911 Y118.765 E75.33738
G1 X97.623 Y118.201 E75.60335
G1 X97.408 Y117.733 E75.81966
G1 X97.175 Y117.176 E76.07325
G1 X96.945 Y116.559 E76.34981
G1 X96.785 Y116.074 E76.56431
G1 X96.645 Y115.592 E76.77511
G1 X96.494 Y114.997 E77.03293
G1 X96.388 Y114.503 E77.24514
G1 X96.267 Y113.823 E77.53522
G1 X96.182 Y113.177 E77.80888
G1 X96.14 Y112.732 E77.99661
G1 X96.104 Y112.149 E78.24194
G1 X96.09 Y111.564 E78.48771
G1 X96.102 Y110.939 E78.75026
G1 X96.133 Y110.349 E78.9984
G1 X96.176 Y109.867 E79.20164
G1 X96.239 Y109.358 E79.41705
G1 X96.344 Y108.707 E79.69401
G1 X96.486 Y108.023 E79.98741
G1 X96.59 Y107.608 E80.1671
G1 X96.726 Y107.12 E80.37987
G1 X96.918 Y106.514 E80.64686
G1 X97.103 Y106.006 E80.87393
G1 X97.334 Y105.432 E81.1338
G1 X97.545 Y104.964 E81.34941
G1 X97.827 Y104.391 E81.61764
G1 X98.149 Y103.802 E81.89957
G1 X98.368 Y103.438 E82.07799
G1 X98.745 Y102.853 E82.37029
G1 X99.318 Y102.064 E82.77984
G1 X99.742 Y101.538 E83.0636
G1 X100.148 Y101.079 E83.32097
G1 X100.51 Y100.698 E83.5417
;MESH:cylinder 8x8.stl
G0 F7200 X104.433 Y104.433
;TYPE:FILL
G1 F600 X118.568 Y118.568 E91.93747
G0 F7200 X119.839 Y117.011
G1 F600 X105.99 Y103.161 E100.16365
G0 F7200 X107.85 Y102.193
G1 F600 X120.804 Y115.148 E107.85823
G0 F7200 X121.396 Y112.911
G1 F600 X110.09 Y101.605 E114.57365
G0 F7200 X112.915 Y101.601
G1 F600 X121.39 Y110.076 E119.60754
G0 F7200 X117.008 Y119.836
G1 F600 X103.159 Y105.987 E127.83343
G0 F7200 X102.19 Y107.847
G1 F600 X115.145 Y120.802 E135.52831
G0 F7200 X112.906 Y121.391
G1 F600 X101.6 Y110.085 E142.24373
G0 F7200 X101.609 Y112.922
G1 F600 X110.078 Y121.392 E147.27436
;MESH:NONMESH
G0 X110.078 Y121.392 Z1
G0 F7200 X101.601 Y110.083
;TIME_ELAPSED:37.160911
;LAYER:1
;TYPE:FILL
;MESH:cylinder 8x8.stl
G1 F600 X110.078 Y101.607 E152.30914
G0 F7200 X112.911 Y101.602
G1 F600 X101.607 Y112.906 E159.02337
G0 F7200 X102.196 Y115.145
G1 F600 X115.148 Y102.193 E166.71647
G0 F7200 X117.012 Y103.157
G1 F600 X103.161 Y117.008 E174.94354
G0 F7200 X104.429 Y118.569
G1 F600 X118.566 Y104.432 E183.34049
G0 F7200 X119.836 Y105.991
G1 F600 X105.988 Y119.838 E191.56549
G0 F7200 X107.852 Y120.803
G1 F600 X120.803 Y107.852 E199.25799
G0 F7200 X121.391 Y110.092
G1 F600 X110.089 Y121.394 E205.97104
G0 F7200 X112.922 Y121.389
G1 F600 X121.393 Y112.919 E211.00226
;MESH:NONMESH
G0 X121.393 Y112.919 Z1.5
G0 F7200 X104.433 Y104.433
;TIME_ELAPSED:53.060401
;LAYER:2
;TYPE:FILL
;MESH:cylinder 8x8.stl
G1 F600 X118.569 Y118.569 E219.39861
G0 F7200 X119.839 Y117.011
G1 F600 X105.99 Y103.161 E227.62479
G0 F7200 X107.85 Y102.193
G1 F600 X120.804 Y115.147 E235.31908
G0 F7200 X121.395 Y112.91
G1 F600 X110.092 Y101.607 E242.03272
G0 F7200 X112.916 Y101.602
G1 F600 X121.389 Y110.076 E247.06572
G0 F7200 X117.008 Y119.836
G1 F600 X103.158 Y105.986 E255.2922
G0 F7200 X102.191 Y107.847
G1 F600 X115.145 Y120.802 E262.98678
G0 F7200 X112.906 Y121.391
G1 F600 X101.6 Y110.085 E269.7022
G0 F7200 X101.608 Y112.922
G1 F600 X110.078 Y121.391 E274.73283
;MESH:NONMESH
G0 X110.078 Y121.391 Z2
G0 F7200 X110.076 Y101.608
;TIME_ELAPSED:69.044274
;LAYER:3
;TYPE:FILL
;MESH:cylinder 8x8.stl
G1 F600 X101.602 Y110.083 E279.76642
G0 F7200 X101.607 Y112.905
G1 F600 X112.911 Y101.602 E286.48036
G0 F7200 X115.148 Y102.193
G1 F600 X102.197 Y115.144 E294.17286
G0 F7200 X103.161 Y117.008
G1 F600 X117.012 Y103.158 E302.39964
G0 F7200 X118.566 Y104.432
G1 F600 X104.429 Y118.569 E310.79659
G0 F7200 X105.989 Y119.837
G1 F600 X119.836 Y105.991 E319.02099
G0 F7200 X120.802 Y107.852
G1 F600 X107.852 Y120.803 E326.71319
G0 F7200 X110.09 Y121.393
G1 F600 X121.391 Y110.092 E333.42565
G0 F7200 X121.392 Y112.92
G1 F600 X112.922 Y121.389 E338.45627
;MESH:NONMESH
G0 X112.922 Y121.389 Z2.5
G0 F7200 X104.433 Y104.433
;TIME_ELAPSED:84.942423
;LAYER:4
;TYPE:FILL
;MESH:cylinder 8x8.stl
G1 F600 X118.569 Y118.569 E346.85263
G0 F7200 X117.008 Y119.836
G1 F600 X103.157 Y105.986 E355.07941
G0 F7200 X102.192 Y107.849
G1 F600 X115.145 Y120.802 E362.7731
G0 F7200 X112.906 Y121.391
G1 F600 X101.599 Y110.085 E369.48881
G0 F7200 X101.609 Y112.922
G1 F600 X110.076 Y121.39 E374.51825
G0 F7200 X119.839 Y117.01
G1 F600 X105.991 Y103.162 E382.74354
G0 F7200 X107.851 Y102.194
G1 F600 X120.804 Y115.147 E390.43723
G0 F7200 X121.395 Y112.91
G1 F600 X110.092 Y101.607 E397.15087
G0 F7200 X112.917 Y101.603
G1 F600 X121.389 Y110.076 E402.18328
;MESH:NONMESH
G0 X121.389 Y110.076 Z3
G0 F7200 X110.078 Y101.606
;TIME_ELAPSED:100.878392
;LAYER:5
;TYPE:FILL
;MESH:cylinder 8x8.stl
G1 F600 X101.605 Y110.079 E407.21599
G0 F7200 X101.601 Y112.912
G1 F600 X112.91 Y101.603 E413.93319
G0 F7200 X115.148 Y102.193
G1 F600 X102.193 Y115.148 E421.62807
G0 F7200 X103.159 Y117.011
G1 F600 X117.009 Y103.16 E429.85484
G0 F7200 X118.568 Y104.43
G1 F600 X104.432 Y118.566 E438.2512
G0 F7200 X105.987 Y119.839
G1 F600 X119.838 Y105.988 E446.47827
G0 F7200 X120.804 Y107.851
G1 F600 X107.847 Y120.808 E454.17434
G0 F7200 X110.087 Y121.396
G1 F600 X121.394 Y110.089 E460.89036
G0 F7200 X121.393 Y112.918
G1 F600 X112.916 Y121.396 E465.92573
;MESH:NONMESH
G0 X112.916 Y121.396 Z3.5
G0 F7200 X104.429 Y104.429
;TIME_ELAPSED:116.781327
;LAYER:6
;TYPE:FILL
;MESH:cylinder 8x8.stl
G1 F600 X118.567 Y118.567 E474.32328
G0 F7200 X119.839 Y117.011
G1 F600 X105.989 Y103.161 E482.54976
G0 F7200 X107.85 Y102.193
G1 F600 X120.807 Y115.15 E490.24582
G0 F7200 X121.396 Y112.91
G1 F600 X110.09 Y101.604 E496.96124
G0 F7200 X112.919 Y101.605
G1 F600 X121.393 Y110.079 E501.99454
G0 F7200 X117.011 Y119.839
G1 F600 X103.159 Y105.988 E510.22191
G0 F7200 X102.193 Y107.85
G1 F600 X115.148 Y120.804 E517.9165
G0 F7200 X112.91 Y121.395
G1 F600 X101.603 Y110.088 E524.63251
G0 F7200 X101.602 Y112.915
G1 F600 X110.082 Y121.396 E529.66967
;MESH:NONMESH
G0 X110.082 Y121.396 Z4
G0 F7200 X110.078 Y101.606
;TIME_ELAPSED:132.768426
;LAYER:7
;TYPE:FILL
;MESH:cylinder 8x8.stl
G1 F600 X101.605 Y110.079 E534.70238
G0 F7200 X101.602 Y112.911
G1 F600 X112.91 Y101.603 E541.41898
G0 F7200 X115.149 Y102.192
